; HEADER_BLOCK_START
; generated by Creality_Print V5.0.0.8636 on 2024-08-04 at 16:27:46
; total layer number: 90
; filament_density: 1.24
; filament_diameter: 1.75
; max_z_height: 7.32
; HEADER_BLOCK_END

; MINX = 86.35
; MINY = 106.10
; MINZ = 0.00
; MAXX = 133.65
; MAXY = 113.90
; MAXZ = 7.29

; THUMBNAIL_BLOCK_START

;
; THUMBNAIL_BLOCK_END

; THUMBNAIL_BLOCK_START

;
; THUMBNAIL_BLOCK_END

; external perimeters extrusion width = 0.42mm
; perimeters extrusion width = 0.45mm
; infill extrusion width = 0.45mm
; solid infill extrusion width = 0.42mm
; top infill extrusion width = 0.42mm
; first layer extrusion width = 0.50mm

; EXECUTABLE_BLOCK_START
M73 P0 R10
M106 S0
M106 P2 S0
;TYPE:Custom
M140 S0
M104 S0 
START_PRINT EXTRUDER_TEMP=215 BED_TEMP=50
G90
G21
M83 ; use relative distances for extrusion
; filament start gcode
M106 S0
M106 P2 S0
;LAYER_CHANGE
;Z:0.2
;HEIGHT:0.2
;BEFORE_LAYER_CHANGE
;0.2
G92 E0

G1 E-.5 F2400
;AFTER_LAYER_CHANGE
;0.2
;_SET_FAN_SPEED_CHANGING_LAYER
SET_VELOCITY_LIMIT ACCEL=500 ACCEL_TO_DECEL=250
; printing object 2024-08-04-HS422-Axel.stl id:4294967297 copy 0
G1 X86.395 Y102.733 F30000
G1 Z.4
G1 Z.2
G1 E.5 F2400
;TYPE:Brim
;WIDTH:0.5
G1 F3000
G1 X86.921 Y102.365 E.02317
G1 X87.496 Y102.08 E.02317
G1 X88.106 Y101.882 E.02317
G1 X88.742 Y101.776 E.02329
G1 X89.14 Y101.758 E.01438
G1 X130.856 Y101.758 E1.50619
G1 X131.505 Y101.806 E.02348
G1 X132.131 Y101.947 E.02317
G1 X132.729 Y102.179 E.02317
G1 X133.287 Y102.497 E.02317
G1 X133.791 Y102.893 E.02317
G1 X134.232 Y103.36 E.02317
G1 X134.599 Y103.886 E.02317
G1 X134.885 Y104.46 E.02317
G1 X135.083 Y105.071 E.02317
G1 X135.189 Y105.707 E.02329
G1 X135.207 Y106.105 E.01439
G1 X135.207 Y113.892 E.28113
G1 X135.159 Y114.54 E.02348
G1 X135.018 Y115.166 E.02317
G1 X134.786 Y115.764 E.02317
G1 X134.468 Y116.322 E.02317
G1 X134.072 Y116.827 E.02317
G1 X133.605 Y117.267 E.02317
G1 X133.079 Y117.635 E.02317
G1 X132.504 Y117.92 E.02317
G1 X131.894 Y118.118 E.02317
G1 X131.258 Y118.224 E.02329
G1 X130.86 Y118.242 E.01439
G1 X89.144 Y118.242 E1.50619
G1 X88.495 Y118.194 E.02348
G1 X87.869 Y118.053 E.02317
G1 X87.271 Y117.821 E.02317
G1 X86.713 Y117.503 E.02317
G1 X86.209 Y117.107 E.02317
G1 X85.768 Y116.641 E.02317
G1 X85.401 Y116.114 E.02317
G1 X85.115 Y115.54 E.02317
G1 X84.917 Y114.929 E.02317
G1 X84.811 Y114.293 E.02329
G1 X84.793 Y113.895 E.01438
G1 X84.793 Y106.108 E.28113
G1 X84.841 Y105.46 E.02348
G1 X84.982 Y104.834 E.02317
G1 X85.214 Y104.236 E.02317
G1 X85.532 Y103.678 E.02317
G1 X85.928 Y103.173 E.02317
G1 X86.366 Y102.76 E.02173
G1 X86.68 Y103.094 F30000
G1 F3000
G1 X86.692 Y103.082 E.00063
G1 X87.146 Y102.765 E.01999
G1 X87.66 Y102.509 E.02072
G1 X88.205 Y102.33 E.02072
G1 X88.783 Y102.233 E.02114
G1 X89.154 Y102.215 E.01343
G1 X130.844 Y102.215 E1.50528
G1 X131.447 Y102.261 E.02182
G1 X132.007 Y102.389 E.02072
G1 X132.541 Y102.598 E.02072
G1 X133.039 Y102.883 E.02072
G1 X133.474 Y103.225 E.01999
G1 X133.882 Y103.657 E.02145
G1 X134.199 Y104.111 E.01999
G1 X134.456 Y104.624 E.02072
G1 X134.639 Y105.19 E.02145
G1 X134.734 Y105.764 E.021
G1 X134.75 Y106.119 E.01284
G1 X134.75 Y113.87 E.27985
G1 X134.706 Y114.462 E.02146
G1 X134.582 Y115.022 E.02072
G1 X134.367 Y115.576 E.02145
G1 X134.081 Y116.074 E.02072
G1 X133.726 Y116.525 E.02072
G1 X133.308 Y116.918 E.02072
G1 X132.854 Y117.235 E.01999
G1 X132.34 Y117.491 E.02072
G1 X131.795 Y117.67 E.02072
G1 X131.217 Y117.767 E.02114
G1 X130.846 Y117.785 E.01343
G1 X89.156 Y117.785 E1.50528
G1 X88.573 Y117.742 E.02109
G1 X88.013 Y117.617 E.02072
G1 X87.477 Y117.411 E.02072
G1 X86.961 Y117.117 E.02145
G1 X86.511 Y116.761 E.02072
G1 X86.118 Y116.343 E.02072
G1 X85.79 Y115.871 E.02072
G1 X85.536 Y115.357 E.02072
G1 X85.366 Y114.83 E.01999
G1 X85.268 Y114.253 E.02114
G1 X85.25 Y113.881 E.01343
G1 X85.25 Y106.13 E.27985
G1 X85.294 Y105.538 E.02146
G1 X85.418 Y104.978 E.02072
G1 X85.633 Y104.424 E.02145
M73 P1 R10
G1 X85.919 Y103.926 E.02072
G1 X86.274 Y103.475 E.02072
G1 X86.651 Y103.122 E.01865
G1 X86.965 Y103.454 F30000
G1 F3000
G1 X86.974 Y103.445 E.00046
G1 X87.373 Y103.165 E.01758
G1 X87.825 Y102.937 E.01829
G1 X88.305 Y102.779 E.01827
G1 X88.824 Y102.689 E.01899
G1 X89.168 Y102.672 E.01245
G1 X130.822 Y102.672 E1.50394
G1 X131.368 Y102.714 E.01979
G1 X131.881 Y102.831 E.019
G1 X132.352 Y103.016 E.01827
G1 X132.774 Y103.258 E.01757
G1 X133.158 Y103.558 E.01756
G1 X133.533 Y103.955 E.01973
G1 X133.81 Y104.354 E.01756
G1 X134.027 Y104.789 E.01754
G1 X134.191 Y105.288 E.01897
G1 X134.279 Y105.819 E.01945
G1 X134.293 Y106.132 E.0113
G1 X134.293 Y113.848 E.27858
G1 X134.254 Y114.385 E.01947
G1 X134.145 Y114.879 E.01825
G1 X133.948 Y115.388 E.0197
G1 X133.695 Y115.826 E.01824
G1 X133.381 Y116.222 E.01827
G1 X133.011 Y116.568 E.01829
G1 X132.61 Y116.845 E.01758
G1 X132.175 Y117.063 E.01757
G1 X131.695 Y117.221 E.01827
G1 X131.176 Y117.311 E.01899
G1 X130.832 Y117.328 E.01245
G1 X89.167 Y117.327 E1.50433
G1 X88.63 Y117.286 E.01945
G1 X88.136 Y117.174 E.0183
G1 X87.664 Y116.991 E.01826
G1 X87.209 Y116.73 E.01896
G1 X86.813 Y116.416 E.01824
G1 X86.468 Y116.046 E.01827
G1 X86.181 Y115.63 E.01827
G1 X85.965 Y115.193 E.01757
G1 X85.814 Y114.73 E.01758
G1 X85.724 Y114.211 E.01901
G1 X85.707 Y113.867 E.01245
G1 X85.707 Y106.152 E.27855
G1 X85.749 Y105.595 E.02019
G1 X85.861 Y105.101 E.01828
G1 X86.043 Y104.631 E.01821
G1 X86.293 Y104.191 E.01826
G1 X86.606 Y103.793 E.01827
G1 X86.936 Y103.481 E.01639
G1 X87.251 Y103.812 F30000
G1 F3000
G1 X87.257 Y103.807 E.00029
G1 X87.6 Y103.564 E.01518
G1 X87.991 Y103.365 E.01585
G1 X88.407 Y103.226 E.01582
G1 X88.866 Y103.146 E.01684
G1 X89.183 Y103.129 E.01147
G1 X130.799 Y103.129 E1.50259
G1 X131.29 Y103.166 E.01775
G1 X131.755 Y103.273 E.01726
G1 X132.144 Y103.426 E.01509
G1 X132.51 Y103.634 E.0152
G1 X132.856 Y103.904 E.01585
G1 X133.183 Y104.252 E.01723
G1 X133.42 Y104.597 E.01511
G1 X133.599 Y104.954 E.01442
G1 X133.747 Y105.408 E.01723
G1 X133.824 Y105.882 E.01734
G1 X133.836 Y113.826 E.28684
G1 X133.798 Y114.329 E.01822
G1 X133.702 Y114.757 E.01582
G1 X133.538 Y115.18 E.0164
G1 X133.322 Y115.559 E.01576
G1 X133.05 Y115.903 E.01582
G1 X132.73 Y116.204 E.01586
G1 X132.385 Y116.445 E.01521
G1 X132.009 Y116.635 E.01518
G1 X131.593 Y116.774 E.01584
G1 X131.134 Y116.854 E.01684
G1 X130.817 Y116.871 E.01147
G1 X89.18 Y116.87 E1.50335
G1 X88.708 Y116.834 E.01707
G1 X88.28 Y116.738 E.01586
G1 X87.853 Y116.573 E.01652
G1 X87.458 Y116.344 E.01646
G1 X87.117 Y116.072 E.01576
G1 X86.819 Y115.75 E.01582
G1 X86.571 Y115.388 E.01584
G1 X86.387 Y115.011 E.01518
G1 X86.262 Y114.629 E.01449
G1 X86.181 Y114.169 E.01687
G1 X86.164 Y113.852 E.01147
G1 X86.164 Y106.175 E.2772
G1 X86.205 Y105.653 E.01889
G1 X86.303 Y105.225 E.01584
G1 X86.462 Y104.819 E.01577
G1 X86.68 Y104.439 E.01581
G1 X86.938 Y104.11 E.01509
G1 X87.222 Y103.84 E.01415
G1 X87.537 Y104.173 F30000
G1 F3000
G1 X87.556 Y104.155 E.00095
G1 X87.845 Y103.952 E.01277
G1 X88.178 Y103.785 E.01343
G1 X88.529 Y103.669 E.01337
G1 X88.91 Y103.602 E.01395
G1 X89.199 Y103.586 E.01046
G1 X130.777 Y103.586 E1.50122
G1 X131.211 Y103.619 E.01571
G1 X131.63 Y103.714 E.01551
G1 X131.955 Y103.844 E.01265
G1 X132.246 Y104.01 E.0121
G1 X132.539 Y104.236 E.01335
G1 X132.832 Y104.548 E.01546
G1 X133.02 Y104.822 E.01199
G1 X133.17 Y105.119 E.01203
G1 X133.303 Y105.526 E.01547
G1 X133.367 Y105.93 E.01474
G1 X133.379 Y113.804 E.28431
M73 P2 R10
G1 X133.343 Y114.272 E.01693
G1 X133.26 Y114.633 E.01338
G1 X133.128 Y114.973 E.01318
G1 X132.947 Y115.294 E.0133
G1 X132.719 Y115.585 E.01337
G1 X132.448 Y115.842 E.01344
G1 X132.158 Y116.046 E.01283
G1 X131.824 Y116.215 E.01351
G1 X131.471 Y116.331 E.01342
G1 X131.09 Y116.398 E.01395
G1 X130.801 Y116.414 E.01046
G1 X89.192 Y116.412 E1.50234
G1 X88.786 Y116.381 E.01472
G1 X88.403 Y116.296 E.01415
G1 X88.042 Y116.154 E.014
G1 X87.709 Y115.959 E.01394
G1 X87.422 Y115.728 E.01329
G1 X87.172 Y115.456 E.01337
G1 X86.963 Y115.149 E.01341
G1 X86.808 Y114.829 E.01282
G1 X86.705 Y114.509 E.01217
G1 X86.637 Y114.126 E.01404
G1 X86.621 Y113.836 E.01046
G1 X86.621 Y106.198 E.2758
G1 X86.66 Y105.712 E.01758
G1 X86.744 Y105.351 E.01339
G1 X86.88 Y105.008 E.01333
G1 X87.066 Y104.687 E.01338
G1 X87.284 Y104.411 E.0127
G1 X87.508 Y104.201 E.01108
G1 X87.814 Y104.556 F30000
G1 F3000
G1 X87.913 Y104.47 E.00473
G1 X88.254 Y104.271 E.01426
G1 X88.772 Y104.098 E.0197
G1 X89.176 Y104.043 E.01475
G1 X130.826 Y104.043 E1.50381
G1 X131.305 Y104.111 E.01747
G1 X131.885 Y104.332 E.0224
G1 X132.163 Y104.521 E.01212
G1 X132.346 Y104.695 E.00915
G1 X132.549 Y104.958 E.012
G1 X132.699 Y105.226 E.01108
G1 X132.745 Y105.337 E.00432
G1 X132.905 Y105.933 E.02229
G1 X132.922 Y106.135 E.00732
G1 X132.922 Y113.861 E.27896
G1 X132.854 Y114.341 E.01747
G1 X132.633 Y114.92 E.02238
G1 X132.433 Y115.209 E.0127
G1 X132.161 Y115.475 E.01373
G1 X131.917 Y115.638 E.01061
G1 X131.508 Y115.826 E.01626
G1 X131.136 Y115.922 E.01385
G1 X130.825 Y115.957 E.0113
G1 X89.174 Y115.957 E1.50387
G1 X88.695 Y115.889 E.01747
G1 X88.115 Y115.668 E.0224
G1 X87.837 Y115.479 E.01212
G1 X87.654 Y115.305 E.00914
G1 X87.451 Y115.042 E.012
G1 X87.301 Y114.774 E.01108
G1 X87.255 Y114.663 E.00432
G1 X87.095 Y114.067 E.02229
G1 X87.078 Y113.865 E.00732
G1 X87.078 Y106.148 E.27862
G1 X87.172 Y105.573 E.02105
G1 X87.274 Y105.266 E.01167
G1 X87.422 Y104.986 E.01142
G1 X87.659 Y104.69 E.01371
G1 X87.784 Y104.582 E.00595
G1 X88.069 Y104.933 F30000
G1 F3000
G1 X88.208 Y104.82 E.00647
G1 X88.487 Y104.664 E.01154
G1 X88.915 Y104.532 E.01619
G1 X89.167 Y104.5 E.00917
G1 X130.836 Y104.5 E1.50449
G1 X131.139 Y104.537 E.01103
G1 X131.63 Y104.711 E.01881
G1 X131.851 Y104.855 E.00951
G1 X131.987 Y104.978 E.00662
G1 X132.145 Y105.172 E.00906
G1 X132.304 Y105.456 E.01174
G1 X132.449 Y105.965 E.01909
G1 X132.465 Y106.13 E.00599
G1 X132.465 Y113.871 E.27951
G1 X132.428 Y114.174 E.01103
G1 X132.254 Y114.665 E.01881
G1 X132.111 Y114.884 E.00942
G1 X131.906 Y115.096 E.01064
G1 X131.724 Y115.224 E.00803
G1 X131.397 Y115.383 E.01315
G1 X131.087 Y115.468 E.0116
G1 X130.833 Y115.5 E.00925
G1 X89.164 Y115.5 E1.50449
G1 X88.861 Y115.463 E.01103
G1 X88.37 Y115.289 E.01881
G1 X88.149 Y115.145 E.00951
G1 X88.013 Y115.022 E.00662
G1 X87.855 Y114.828 E.00906
G1 X87.696 Y114.544 E.01174
G1 X87.551 Y114.035 E.01909
G1 X87.535 Y113.87 E.00599
G1 X87.535 Y106.137 E.27922
M73 P3 R10
G1 X87.623 Y105.643 E.0181
G1 X87.706 Y105.414 E.00882
G1 X87.825 Y105.202 E.00876
G1 X88.015 Y104.976 E.01065
G1 X88.037 Y104.958 E.00105
G1 X88.359 Y105.276 F30000
G1 F3000
G1 X88.485 Y105.182 E.00568
G1 X88.712 Y105.061 E.00927
G1 X89.043 Y104.97 E.01241
G1 X89.159 Y104.957 E.00419
G1 X130.844 Y104.957 E1.50509
G1 X131.09 Y104.991 E.00897
G1 X131.387 Y105.098 E.01139
G1 X131.537 Y105.187 E.00629
G1 X131.689 Y105.324 E.0074
G1 X131.783 Y105.45 E.00568
G1 X131.903 Y105.677 E.00927
G1 X131.994 Y106.008 E.01241
G1 X132.007 Y106.123 E.00419
G1 X132.007 Y113.879 E.28003
G1 X131.974 Y114.125 E.00897
G1 X131.867 Y114.422 E.01139
G1 X131.778 Y114.572 E.00629
G1 X131.641 Y114.724 E.0074
G1 X131.515 Y114.818 E.00568
G1 X131.288 Y114.939 E.00927
G1 X130.957 Y115.03 E.01241
G1 X130.841 Y115.043 E.00419
G1 X89.156 Y115.043 E1.50509
G1 X88.91 Y115.009 E.00897
G1 X88.613 Y114.902 E.01139
G1 X88.463 Y114.813 E.00629
G1 X88.311 Y114.676 E.0074
G1 X88.217 Y114.55 E.00568
G1 X88.097 Y114.323 E.00927
G1 X88.006 Y113.992 E.01241
G1 X87.993 Y113.877 E.00419
G1 X87.993 Y106.125 E.27988
G1 X88.073 Y105.725 E.01475
G1 X88.131 Y105.58 E.00562
G1 X88.222 Y105.428 E.0064
G1 X88.333 Y105.306 E.00595
G1 X88.622 Y105.651 F30000
G1 F3000
G1 X88.767 Y105.542 E.00654
G1 X88.921 Y105.467 E.0062
G1 X89.151 Y105.414 E.00851
G1 X130.853 Y105.414 E1.50571
G1 X131.025 Y105.443 E.00627
G1 X131.141 Y105.483 E.00446
G1 X131.314 Y105.586 E.00726
G1 X131.422 Y105.732 E.00654
G1 X131.497 Y105.886 E.0062
G1 X131.55 Y106.116 E.00851
G1 X131.55 Y113.889 E.28065
G1 X131.522 Y114.06 E.00627
G1 X131.481 Y114.177 E.00446
G1 X131.378 Y114.349 E.00726
G1 X131.233 Y114.458 E.00654
G1 X131.079 Y114.533 E.0062
G1 X130.849 Y114.586 E.00851
G1 X89.147 Y114.586 E1.50571
M73 P3 R9
G1 X88.975 Y114.557 E.00627
G1 X88.859 Y114.517 E.00446
G1 X88.686 Y114.414 E.00726
G1 X88.578 Y114.268 E.00654
G1 X88.503 Y114.114 E.0062
G1 X88.45 Y113.884 E.00851
G1 X88.45 Y106.111 E.28065
G1 X88.519 Y105.823 E.0107
G1 X88.601 Y105.685 E.00582
G1 X88.955 Y105.959 F30000
G1 F3000
G1 X89.135 Y105.871 E.00722
G1 X130.865 Y105.871 E1.50669
G1 X131.006 Y105.92 E.00538
G1 X131.093 Y106.1 E.00722
G1 X131.093 Y113.9 E.28163
G1 X131.045 Y114.041 E.00538
G1 X130.865 Y114.129 E.00722
G1 X89.135 Y114.129 E1.50669
M73 P4 R9
G1 X88.994 Y114.08 E.00538
G1 X88.907 Y113.9 E.00722
G1 X88.907 Y106.1 E.28163
G1 X88.942 Y105.997 E.00394
G1 E-.35 F2400
;WIPE_START
G1 F3000
G1 X89.135 Y105.871 E-.03452
G1 X89.905 Y105.871 E-.11548
;WIPE_END
G1 X97.537 Y105.99 Z.6 F30000
G1 X130.465 Y106.5 Z.6
G1 Z.2
G1 E.5 F2400
;TYPE:Outer wall
G1 F3000
G1 X130.465 Y113.5 E.25274
G1 X110.99 Y113.502 E.70315
G2 X109.48 Y113.617 I.17 J12.221 E.05473
G3 X107.045 Y113.559 I-.963 J-10.629 E.08813
G2 X105.033 Y113.5 I-1.53 J17.884 E.07271
G1 X89.535 Y113.5 E.55955
G1 X89.535 Y106.5 E.25274
G1 X105.034 Y106.499 E.5596
G2 X106.549 Y106.368 I.129 J-7.322 E.055
G3 X107.239 Y106.35 I.583 J8.949 E.02493
G1 X107.286 Y106.565 E.00796
G2 X106.218 Y107.064 I10.336 J23.53 E.04257
G2 X105.088 Y108.65 I1.996 J2.618 E.0714
G2 X106.49 Y112.779 I3.403 J1.147 E.16919
G2 X107.598 Y113.159 I1.448 J-2.418 E.0426
G2 X108.687 Y113.245 I1.031 J-6.117 E.0395
G2 X109.776 Y113.093 I-1.131 J-12.053 E.03973
G2 X111.114 Y112.276 I-.763 J-2.753 E.05732
G2 X111.098 Y107.322 I-2.602 J-2.469 E.19745
G2 X110.428 Y106.886 I-1.325 J1.302 E.02909
G3 X109.714 Y106.565 I5.814 J-13.924 E.02828
G1 X109.761 Y106.35 E.00796
G3 X110.964 Y106.457 I.096 J5.752 E.04368
G2 X111.986 Y106.5 I.883 J-8.839 E.03694
G1 X130.425 Y106.5 E.66577
G1 E-.35 F2400
;WIPE_START
G1 F3000
G1 X130.43 Y107.5 E-.15
;WIPE_END
G1 X122.8 Y107.33 Z.6 F30000
G1 X105.623 Y106.948 Z.6
G1 Z.2
G1 E.5 F2400
;TYPE:Inner wall
G1 F3000
G1 X105.276 Y107.337 E.01881
G2 X105.555 Y112.592 I3.245 J2.463 E.20654
G1 X106.037 Y113.046 E.0239
G1 X89.992 Y113.043 E.5793
G1 X89.992 Y106.957 E.21974
G1 X105.583 Y106.948 E.56291
G1 E-.35 F2400
;WIPE_START
G1 F3000
G1 X105.276 Y107.337 E-.07428
G1 X105.024 Y107.706 E-.0671
G1 X104.997 Y107.757 E-.00862
;WIPE_END
G1 X112.625 Y107.513 Z.6 F30000
G1 X130.008 Y106.957 Z.6
G1 Z.2
M73 P5 R9
G1 E.5 F2400
G1 F3000
G1 X130.008 Y113.043 E.21974
G1 X110.964 Y113.045 E.68761
G2 X111.977 Y111.892 I-3.163 J-3.803 E.05566
G2 X111.378 Y106.949 I-3.468 J-2.087 E.19365
G1 X111.983 Y106.957 E.02184
G1 X129.968 Y106.957 E.64937
G1 E-.35 F2400
;WIPE_START
G1 F3000
G1 X129.974 Y107.957 E-.15
;WIPE_END
G1 X122.36 Y107.436 Z.6 F30000
G1 X107.51 Y106.419 Z.6
G1 Z.2
G1 E.5 F2400
;TYPE:Outer wall
;WIDTH:0.591492
G1 F3000
G1 X107.923 Y106.374 E.018
;WIDTH:0.561251
G3 X109.047 Y106.372 I.578 J7.742 E.04605
;WIDTH:0.604036
G3 X109.49 Y106.419 I-.655 J8.218 E.01973
G1 X110.491 Y106.635 F30000
;TYPE:Gap infill
;WIDTH:0.107529
G1 F3000
G1 X110.54 Y106.65 E.00026
;WIDTH:0.151522
G1 X110.782 Y106.729 E.00219
G1 X110.853 Y106.784 E.00077
;WIDTH:0.133837
G1 X110.924 Y106.838 E.00064
;WIDTH:0.109453
G1 X111.006 Y106.916 E.0006
G1 E-.40895 F2400
;WIPE_START
G1 F3000
G1 X110.924 Y106.838 E-.09105
;WIPE_END
G1 X106.513 Y106.633 Z.6 F30000
G1 Z.2
G1 E.5 F2400
;WIDTH:0.10574
G1 F3000
G1 X106.46 Y106.649 E.00027
;WIDTH:0.127619
G1 X106.339 Y106.689 E.00085
;WIDTH:0.156588
G2 X106.076 Y106.838 I.082 J.451 E.00276
;WIDTH:0.115135
G1 X105.994 Y106.916 E.00065
G1 E-.40897 F2400
;WIPE_START
G1 F3000
G1 X106.076 Y106.838 E-.09103
;WIPE_END
G1 X105.1 Y112.657 Z.6 F30000
G1 Z.2
G1 E.5 F2400
;TYPE:Bottom surface
;WIDTH:0.499999
G1 F6300
G1 X104.696 Y112.103 E.02475
G1 X104.295 Y111.243 E.03427
G1 X104.083 Y110.305 E.03471
G1 X104.078 Y109.344 E.03471
G1 X104.279 Y108.404 E.03471
G1 X104.679 Y107.527 E.03479
G1 X104.806 Y107.337 E.00824
G1 X90.381 Y107.345 E.52082
G1 X90.381 Y112.654 E.19169
G1 X105.06 Y112.657 E.53001
