; HEADER_BLOCK_START
; generated by Creality_Print V5.0.0.8636 on 2024-08-16 at 11:54:18
; total layer number: 67
; filament_density: 1.24
; filament_diameter: 1.75
; max_z_height: 5.48
; HEADER_BLOCK_END

; MINX = 105.60
; MINY = 101.55
; MINZ = 0.00
; MAXX = 114.40
; MAXY = 118.45
; MAXZ = 5.50

; THUMBNAIL_BLOCK_START

;
; THUMBNAIL_BLOCK_END

; THUMBNAIL_BLOCK_START

;
; THUMBNAIL_BLOCK_END

; external perimeters extrusion width = 0.42mm
; perimeters extrusion width = 0.45mm
; infill extrusion width = 0.45mm
; solid infill extrusion width = 0.42mm
; top infill extrusion width = 0.42mm
; first layer extrusion width = 0.50mm

; EXECUTABLE_BLOCK_START
M73 P0 R5
M106 S0
M106 P2 S0
;TYPE:Custom
M140 S0
M104 S0 
START_PRINT EXTRUDER_TEMP=215 BED_TEMP=50
G90
G21
M83 ; use relative distances for extrusion
; filament start gcode
M106 S0
M106 P2 S0
;LAYER_CHANGE
;Z:0.2
;HEIGHT:0.2
;BEFORE_LAYER_CHANGE
;0.2
G92 E0

G1 E-.5 F2400
;AFTER_LAYER_CHANGE
;0.2
;_SET_FAN_SPEED_CHANGING_LAYER
SET_VELOCITY_LIMIT ACCEL=500 ACCEL_TO_DECEL=250
; printing object 2024-08-16-HS311-C24T-test-arm.stl id:2761708824096 copy 0
G1 X103.835 Y99.753 F30000
G1 Z.4
G1 Z.2
G1 E.5 F2400
;TYPE:Brim
;WIDTH:0.5
G1 F3000
G1 X104.158 Y99.447 E.01609
G1 X104.616 Y99.063 E.02158
G1 X105.311 Y98.574 E.03067
G1 X105.776 Y98.297 E.01953
G1 X106.124 Y98.115 E.01418
G1 X106.852 Y97.795 E.02871
G1 X107.657 Y97.529 E.03062
G1 X108.182 Y97.4 E.01953
G1 X108.568 Y97.327 E.01419
G1 X109.358 Y97.232 E.0287
G1 X110.205 Y97.212 E.03062
G1 X110.746 Y97.24 E.01953
G1 X111.136 Y97.283 E.01418
G1 X111.921 Y97.422 E.02878
G1 X112.632 Y97.615 E.02661
G1 X113.424 Y97.907 E.03047
G1 X114.144 Y98.253 E.02884
G1 X114.485 Y98.447 E.01418
G1 X114.982 Y98.767 E.02133
G1 X115.615 Y99.251 E.02877
G1 X115.91 Y99.51 E.01418
G1 X116.339 Y99.931 E.0217
G1 X116.604 Y100.223 E.01422
G1 X116.976 Y100.682 E.02134
G1 X117.425 Y101.337 E.02868
G1 X117.812 Y102.029 E.02863
G1 X118.138 Y102.759 E.02886
G1 X118.273 Y103.127 E.01418
G1 X118.445 Y103.693 E.02134
G1 X118.615 Y104.468 E.02868
G1 X118.714 Y105.255 E.02863
G1 X118.741 Y106.051 E.02876
G1 X118.696 Y106.843 E.02864
G1 X118.59 Y107.575 E.02668
G1 X116.715 Y117.265 E.35638
G1 X116.624 Y117.659 E.01459
G1 X116.467 Y118.181 E.01969
G1 X116.269 Y118.688 E.01964
G1 X116.031 Y119.179 E.0197
G1 X115.859 Y119.482 E.01258
G1 X115.559 Y119.936 E.01965
G1 X115.289 Y120.29 E.01606
G1 X115.047 Y120.568 E.01333
G1 X114.518 Y121.087 E.02675
G1 X114.097 Y121.429 E.01958
G1 X113.648 Y121.737 E.01964
G1 X113.177 Y122.008 E.01964
G1 X112.684 Y122.242 E.0197
G1 X112.36 Y122.371 E.01258
G1 X111.841 Y122.539 E.0197
G1 X111.312 Y122.664 E.01964
G1 X110.776 Y122.747 E.01958
G1 X110.038 Y122.791 E.02669
G1 X109.496 Y122.772 E.01958
G1 X108.954 Y122.711 E.0197
G1 X108.611 Y122.649 E.01258
G1 X108.083 Y122.517 E.01964
G1 X107.386 Y122.272 E.02669
G1 X106.892 Y122.044 E.01964
G1 X106.19 Y121.633 E.02937
G1 X105.749 Y121.31 E.01974
G1 X105.337 Y120.956 E.01962
G1 X105.088 Y120.712 E.01258
G1 X104.724 Y120.305 E.0197
G1 X104.396 Y119.874 E.01958
G1 X104.005 Y119.246 E.02669
G1 X103.763 Y118.761 E.01958
G1 X103.559 Y118.256 E.01964
G1 X103.396 Y117.737 E.01967
G1 X103.285 Y117.265 E.01751
G1 X101.402 Y107.53 E.358
G1 X101.3 Y106.798 E.02669
G1 X101.258 Y105.949 E.03067
G1 X101.267 Y105.557 E.01417
G1 X101.309 Y105.018 E.01953
G1 X101.44 Y104.179 E.03062
G1 X101.636 Y103.409 E.02871
G1 X101.758 Y103.036 E.01418
G1 X101.955 Y102.532 E.01953
G1 X102.324 Y101.768 E.03062
G1 X102.734 Y101.09 E.02861
G1 X103.206 Y100.45 E.02872
G1 X103.46 Y100.15 E.01418
G1 X103.808 Y99.783 E.01827
G1 X104.14 Y100.113 F30000
G1 F3000
G1 X104.457 Y99.794 E.01621
G1 X104.9 Y99.422 E.02089
G1 X105.567 Y98.953 E.02944
G1 X106.314 Y98.532 E.03096
G1 X107.022 Y98.221 E.02792
G1 X107.792 Y97.967 E.02927
G1 X108.629 Y97.78 E.03097
G1 X109.397 Y97.689 E.02792
G1 X110.204 Y97.669 E.02916
G1 X111.067 Y97.735 E.03123
G1 X111.815 Y97.868 E.02743
G1 X112.499 Y98.053 E.02558
G1 X113.251 Y98.331 E.02897
G1 X113.94 Y98.663 E.0276
G1 X114.723 Y99.145 E.03321
G1 X115.333 Y99.611 E.0277
G1 X116.012 Y100.251 E.03369
G1 X116.605 Y100.951 E.03315
G1 X117.033 Y101.573 E.02724
G1 X117.4 Y102.228 E.02712
G1 X117.712 Y102.926 E.0276
G1 X118 Y103.8 E.03321
G1 X118.163 Y104.54 E.02735
G1 X118.257 Y105.285 E.02712
G1 X118.283 Y106.04 E.02726
G1 X118.241 Y106.791 E.02718
G1 X118.138 Y107.502 E.0259
G1 X116.268 Y117.168 E.35549
M73 P1 R5
G1 X116.181 Y117.546 E.014
G1 X116.032 Y118.037 E.01852
G1 X115.847 Y118.51 E.01833
G1 X115.628 Y118.962 E.01814
G1 X115.466 Y119.247 E.01183
G1 X115.189 Y119.667 E.01819
G1 X114.71 Y120.258 E.02746
G1 X114.208 Y120.749 E.02537
G1 X113.818 Y121.065 E.01812
G1 X113.4 Y121.353 E.01833
G1 X112.96 Y121.606 E.01833
G1 X112.506 Y121.821 E.01814
G1 X112.201 Y121.942 E.01183
G1 X111.723 Y122.096 E.01814
G1 X111.23 Y122.214 E.01833
G1 X110.734 Y122.291 E.01811
G1 X110.026 Y122.333 E.02561
G1 X109.524 Y122.316 E.01812
G1 X109.025 Y122.259 E.01814
G1 X108.209 Y122.077 E.0302
G1 X107.564 Y121.85 E.02468
G1 X107.11 Y121.641 E.01804
G1 X106.447 Y121.254 E.02771
G1 X106.029 Y120.948 E.0187
G1 X105.65 Y120.622 E.01808
G1 X105.416 Y120.392 E.01183
G1 X105.081 Y120.018 E.01814
G1 X104.777 Y119.619 E.01811
G1 X104.402 Y119.017 E.02561
G1 X104.178 Y118.568 E.01812
G1 X103.992 Y118.107 E.01793
G1 X103.839 Y117.62 E.01843
G1 X103.732 Y117.166 E.01686
G1 X101.854 Y107.458 E.357
G1 X101.756 Y106.749 E.02587
G1 X101.716 Y105.938 E.0293
G1 X101.763 Y105.076 E.03118
G1 X101.887 Y104.278 E.02916
G1 X102.078 Y103.528 E.02792
G1 X102.377 Y102.71 E.03146
G1 X102.723 Y101.992 E.02878
G1 X103.118 Y101.34 E.02754
G1 X103.562 Y100.737 E.02702
G1 X103.798 Y100.458 E.0132
G1 X104.112 Y100.141 E.01611
G1 X104.437 Y100.463 F30000
G1 F3000
G1 X104.762 Y100.135 E.01667
G1 X105.184 Y99.782 E.01987
G1 X105.817 Y99.337 E.02796
G1 X106.512 Y98.944 E.02882
G1 X107.192 Y98.646 E.02679
G1 X107.92 Y98.407 E.02767
G1 X108.699 Y98.233 E.02883
G1 X109.436 Y98.145 E.02679
G1 X110.199 Y98.128 E.02756
G1 X111.002 Y98.189 E.02909
G1 X111.709 Y98.313 E.0259
G1 X112.365 Y98.491 E.02455
G1 X113.078 Y98.755 E.02746
G1 X113.726 Y99.068 E.02599
G1 X114.469 Y99.526 E.03152
G1 X115.041 Y99.965 E.02602
G1 X115.674 Y100.561 E.03138
G1 X116.237 Y101.224 E.03142
G1 X116.641 Y101.81 E.02569
G1 X116.988 Y102.429 E.02562
G1 X117.282 Y103.085 E.02597
G1 X117.556 Y103.914 E.03153
G1 X117.71 Y104.612 E.02579
G1 X117.8 Y105.316 E.02562
G1 X117.825 Y106.029 E.02576
G1 X117.786 Y106.74 E.02572
G1 X117.687 Y107.429 E.02512
G1 X115.821 Y117.071 E.35459
G1 X115.737 Y117.433 E.01341
G1 X115.598 Y117.893 E.01735
G1 X115.43 Y118.321 E.01663
G1 X115.225 Y118.745 E.01698
G1 X114.825 Y119.389 E.02736
G1 X114.366 Y119.955 E.02634
G1 X113.899 Y120.412 E.02359
G1 X113.54 Y120.702 E.01665
G1 X113.151 Y120.968 E.01701
G1 X112.739 Y121.204 E.01714
G1 X112.056 Y121.508 E.027
G1 X111.605 Y121.654 E.01712
G1 X111.147 Y121.764 E.01702
G1 X110.691 Y121.835 E.01664
G1 X110.014 Y121.875 E.02452
G1 X109.564 Y121.86 E.01626
G1 X109.108 Y121.808 E.01655
G1 X108.327 Y121.634 E.0289
G1 X107.741 Y121.428 E.02242
G1 X107.327 Y121.238 E.01644
G1 X106.704 Y120.875 E.02604
G1 X106.318 Y120.593 E.01726
G1 X105.962 Y120.288 E.01693
G1 X105.43 Y119.722 E.02804
G1 X105.15 Y119.354 E.01672
G1 X104.805 Y118.799 E.02358
G1 X104.598 Y118.385 E.01673
G1 X104.421 Y117.948 E.01702
G1 X104.281 Y117.504 E.0168
G1 X104.178 Y117.067 E.0162
G1 X102.306 Y107.387 E.35599
G1 X102.211 Y106.7 E.02505
G1 X102.174 Y105.932 E.02775
G1 X102.218 Y105.13 E.02899
G1 X102.337 Y104.363 E.02803
G1 X102.517 Y103.657 E.02632
G1 X102.801 Y102.882 E.0298
G1 X103.123 Y102.216 E.0267
G1 X103.502 Y101.589 E.02646
G1 X103.918 Y101.024 E.02532
G1 X104.132 Y100.771 E.01196
G1 X104.409 Y100.492 E.01422
G1 X104.734 Y100.813 F30000
G1 F3000
G1 X105.067 Y100.476 E.01712
G1 X105.467 Y100.141 E.01884
G1 X106.067 Y99.72 E.02647
G1 X106.711 Y99.357 E.02669
G1 X107.362 Y99.071 E.02565
G1 X108.048 Y98.846 E.02607
G1 X108.769 Y98.686 E.0267
G1 X109.475 Y98.601 E.02565
G1 X110.194 Y98.585 E.02596
G1 X110.938 Y98.642 E.02697
G1 X111.603 Y98.759 E.02436
G1 X112.231 Y98.929 E.0235
G1 X112.905 Y99.179 E.02594
G1 X113.512 Y99.474 E.02438
G1 X114.215 Y99.907 E.02983
G1 X114.75 Y100.318 E.02434
G1 X115.337 Y100.871 E.0291
G1 X115.869 Y101.497 E.02969
G1 X116.249 Y102.047 E.02413
G1 X116.577 Y102.629 E.02412
G1 X116.853 Y103.244 E.02434
G1 X117.113 Y104.029 E.02985
G1 X117.258 Y104.684 E.02423
G1 X117.343 Y105.347 E.02412
G1 X117.367 Y106.018 E.02425
G1 X117.331 Y106.689 E.02426
G1 X117.235 Y107.356 E.02434
G1 X115.374 Y116.973 E.35368
G1 X115.294 Y117.319 E.01282
G1 X115.167 Y117.738 E.01579
G1 X115.009 Y118.143 E.01572
G1 X114.821 Y118.53 E.01554
G1 X114.457 Y119.116 E.02488
G1 X114.033 Y119.641 E.02437
G1 X113.59 Y120.074 E.02238
G1 X113.262 Y120.338 E.01518
G1 X112.913 Y120.578 E.0153
G1 X112.526 Y120.799 E.01609
G1 X111.899 Y121.077 E.02478
G1 X111.486 Y121.212 E.01566
G1 X111.063 Y121.314 E.01571
G1 X110.649 Y121.379 E.01516
G1 X110.001 Y121.418 E.02342
G1 X109.592 Y121.403 E.01479
G1 X109.191 Y121.358 E.01456
G1 X108.445 Y121.191 E.02759
G1 X107.918 Y121.006 E.02017
G1 X107.544 Y120.835 E.01485
G1 X106.961 Y120.495 E.02437
G1 X106.606 Y120.238 E.01582
G1 X106.284 Y119.962 E.01532
G1 X105.784 Y119.432 E.02629
G1 X105.523 Y119.089 E.01557
G1 X105.207 Y118.581 E.02158
G1 X105.017 Y118.202 E.01533
G1 X104.85 Y117.788 E.0161
G1 X104.721 Y117.377 E.01554
G1 X104.624 Y116.968 E.01518
G1 X102.757 Y107.316 E.35496
M73 P2 R5
G1 X102.666 Y106.651 E.02422
G1 X102.632 Y105.927 E.0262
G1 X102.674 Y105.171 E.02731
G1 X102.787 Y104.449 E.02641
G1 X102.957 Y103.786 E.0247
G1 X103.226 Y103.054 E.02815
G1 X103.528 Y102.429 E.02509
G1 X103.886 Y101.838 E.02492
G1 X104.274 Y101.311 E.02363
G1 X104.466 Y101.084 E.01072
G1 X104.706 Y100.842 E.01232
G1 X105.031 Y101.163 F30000
G1 F3000
G1 X105.373 Y100.818 E.01755
G1 X105.751 Y100.501 E.0178
G1 X106.317 Y100.104 E.02498
G1 X106.91 Y99.77 E.02457
G1 X107.532 Y99.496 E.02451
G1 X108.175 Y99.286 E.02445
G1 X108.853 Y99.136 E.02507
G1 X109.514 Y99.058 E.02402
G1 X110.188 Y99.043 E.02435
G1 X110.875 Y99.096 E.02487
G1 X111.497 Y99.204 E.02282
G1 X112.098 Y99.367 E.02245
G1 X112.731 Y99.603 E.02441
G1 X113.298 Y99.878 E.02276
G1 X113.961 Y100.288 E.02815
G1 X114.458 Y100.671 E.02266
G1 X114.999 Y101.181 E.02683
G1 X115.502 Y101.77 E.02796
G1 X115.857 Y102.284 E.02257
G1 X116.165 Y102.83 E.02262
G1 X116.423 Y103.403 E.02271
G1 X116.669 Y104.144 E.02818
G1 X116.806 Y104.757 E.02266
G1 X116.886 Y105.378 E.02261
G1 X116.91 Y106.007 E.02275
G1 X116.876 Y106.638 E.02279
G1 X116.784 Y107.284 E.02355
G1 X114.928 Y116.876 E.35276
G1 X114.738 Y117.579 E.02629
G1 X114.587 Y117.965 E.01496
G1 X114.416 Y118.315 E.01408
G1 X114.088 Y118.843 E.02244
G1 X113.699 Y119.326 E.0224
G1 X113.28 Y119.736 E.02115
G1 X112.985 Y119.974 E.01371
G1 X112.674 Y120.187 E.01359
G1 X112.313 Y120.393 E.01503
G1 X111.741 Y120.647 E.02259
G1 X111.367 Y120.77 E.01421
G1 X110.98 Y120.864 E.01439
G1 X110.606 Y120.923 E.01366
G1 X109.989 Y120.96 E.0223
G1 X109.631 Y120.947 E.01294
G1 X109.274 Y120.907 E.01296
G1 X108.564 Y120.748 E.02629
G1 X108.095 Y120.583 E.01794
G1 X107.761 Y120.431 E.01326
G1 X107.217 Y120.115 E.02271
G1 X106.894 Y119.882 E.01438
G1 X106.605 Y119.635 E.01372
G1 X106.139 Y119.141 E.02454
G1 X105.897 Y118.823 E.01442
G1 X105.61 Y118.363 E.01959
G1 X105.436 Y118.018 E.01392
G1 X105.279 Y117.629 E.01517
G1 X105.161 Y117.251 E.01427
G1 X105.071 Y116.869 E.01417
G1 X103.209 Y107.245 E.35393
G1 X103.121 Y106.603 E.02339
G1 X103.09 Y105.921 E.02464
G1 X103.13 Y105.213 E.02564
G1 X103.237 Y104.535 E.02478
G1 X103.396 Y103.916 E.02308
G1 X103.65 Y103.227 E.0265
G1 X103.934 Y102.641 E.02349
G1 X104.272 Y102.086 E.02348
G1 X104.796 Y101.402 E.03111
G1 X105.003 Y101.192 E.01066
G1 X105.317 Y101.514 F30000
G1 F3000
G1 X105.725 Y101.116 E.02057
G1 X106.195 Y100.738 E.02179
G1 X106.733 Y100.385 E.02322
G1 X107.266 Y100.104 E.02177
G1 X107.839 Y99.869 E.02236
G1 X108.435 Y99.69 E.02247
G1 X109.079 Y99.563 E.0237
G1 X109.667 Y99.505 E.02133
G1 X110.316 Y99.505 E.02343
G1 X110.92 Y99.563 E.02191
G1 X111.526 Y99.68 E.0223
G1 X112.177 Y99.876 E.02453
G1 X112.846 Y100.16 E.02624
G1 X113.38 Y100.452 E.02198
G1 X113.916 Y100.821 E.0235
G1 X114.388 Y101.218 E.02226
G1 X114.854 Y101.7 E.02421
G1 X115.265 Y102.221 E.02397
G1 X115.61 Y102.762 E.02317
G1 X115.918 Y103.378 E.02488
G1 X116.152 Y104.002 E.02405
G1 X116.311 Y104.601 E.02238
G1 X116.409 Y105.191 E.0216
G1 X116.451 Y105.803 E.02214
G1 X116.433 Y106.457 E.02363
G1 X116.344 Y107.152 E.02528
G1 X114.475 Y116.807 E.35509
G1 X114.195 Y117.709 E.03411
G1 X113.92 Y118.257 E.02215
G1 X113.519 Y118.833 E.02533
G1 X113.082 Y119.295 E.02297
G1 X112.594 Y119.686 E.02258
G1 X111.974 Y120.048 E.0259
G1 X111.408 Y120.276 E.02204
G1 X110.763 Y120.435 E.02398
G1 X110.151 Y120.497 E.02224
G1 X109.436 Y120.463 E.02584
G1 X108.728 Y120.317 E.02609
G1 X108.049 Y120.059 E.02621
G1 X107.496 Y119.749 E.02289
G1 X106.948 Y119.323 E.02509
G1 X106.455 Y118.8 E.02596
G1 X106.072 Y118.245 E.02432
G1 X105.762 Y117.603 E.02575
G1 X105.525 Y116.81 E.02987
G1 X103.665 Y107.198 E.35351
G1 X103.58 Y106.61 E.02145
G1 X103.547 Y106.027 E.02107
G1 X103.666 Y104.713 E.04762
G1 X103.801 Y104.155 E.02075
G1 X103.974 Y103.641 E.01955
G1 X104.22 Y103.079 E.02216
G1 X104.51 Y102.557 E.02157
G1 X104.86 Y102.049 E.02227
G1 X105.284 Y101.545 E.02376
G1 X105.288 Y101.541 E.0002
G1 X105.636 Y101.837 F30000
G1 F3000
G1 X105.636 Y101.837 E.00002
G1 X106.046 Y101.441 E.02059
G1 X106.485 Y101.091 E.02024
G1 X106.987 Y100.765 E.02162
G1 X107.483 Y100.507 E.0202
G1 X108.016 Y100.291 E.02077
G1 X108.571 Y100.126 E.02089
G1 X109.12 Y100.018 E.02019
G1 X109.66 Y99.962 E.01963
G1 X110.322 Y99.962 E.0239
G1 X110.881 Y100.018 E.02026
G1 X111.444 Y100.13 E.02072
G1 X112.05 Y100.315 E.02289
G1 X112.672 Y100.582 E.02443
G1 X113.163 Y100.855 E.0203
G1 X113.661 Y101.2 E.02186
G1 X114.097 Y101.57 E.02066
G1 X114.529 Y102.021 E.02253
G1 X114.909 Y102.507 E.02228
G1 X115.227 Y103.012 E.02155
G1 X115.511 Y103.586 E.02314
G1 X115.725 Y104.166 E.02233
G1 X115.87 Y104.722 E.02073
G1 X115.958 Y105.27 E.02003
G1 X115.996 Y105.839 E.02061
G1 X115.976 Y106.449 E.02203
G1 X115.896 Y107.06 E.02227
G1 X114.025 Y116.728 E.35552
M73 P3 R5
G1 X113.789 Y117.499 E.02913
G1 X113.547 Y117.993 E.01985
G1 X113.19 Y118.516 E.02287
G1 X112.804 Y118.933 E.02051
G1 X112.3 Y119.336 E.02329
G1 X111.74 Y119.656 E.0233
G1 X111.234 Y119.854 E.01963
G1 X110.65 Y119.992 E.02166
G1 X110.1 Y120.042 E.01994
G1 X109.451 Y120.006 E.02346
G1 X108.816 Y119.868 E.02348
G1 X108.208 Y119.63 E.02357
G1 X107.716 Y119.348 E.02047
G1 X107.224 Y118.959 E.02265
G1 X106.784 Y118.483 E.02341
G1 X106.446 Y117.982 E.02184
G1 X106.172 Y117.4 E.02322
G1 X105.975 Y116.73 E.02519
G1 X104.113 Y107.108 E.35388
G1 X104.032 Y106.539 E.02072
G1 X104.003 Y105.993 E.01975
G1 X104.109 Y104.828 E.04225
G1 X104.232 Y104.306 E.01936
G1 X104.409 Y103.781 E.01999
G1 X104.64 Y103.259 E.02062
G1 X104.912 Y102.775 E.02003
G1 X105.239 Y102.304 E.02072
G1 X105.61 Y101.868 E.02067
G1 X105.95 Y102.169 F30000
G1 F3000
G1 X106.328 Y101.801 E.01905
G1 X106.73 Y101.477 E.01863
G1 X107.195 Y101.172 E.02006
G1 X107.651 Y100.932 E.01862
G1 X108.14 Y100.731 E.01908
G1 X108.707 Y100.563 E.02136
G1 X109.212 Y100.466 E.01855
G1 X109.711 Y100.417 E.01812
G1 X110.327 Y100.419 E.02222
G1 X110.839 Y100.473 E.01861
G1 X111.359 Y100.579 E.01915
G1 X111.921 Y100.753 E.02124
G1 X112.495 Y101.003 E.02261
G1 X112.944 Y101.256 E.01863
G1 X113.403 Y101.578 E.02023
G1 X113.804 Y101.922 E.01906
G1 X114.164 Y102.296 E.01877
G1 X114.552 Y102.794 E.02278
G1 X114.843 Y103.259 E.01982
G1 X115.103 Y103.792 E.02141
G1 X115.298 Y104.329 E.0206
G1 X115.429 Y104.841 E.01908
G1 X115.508 Y105.346 E.01847
G1 X115.54 Y105.873 E.01908
G1 X115.524 Y106.384 E.01843
G1 X115.448 Y106.97 E.02133
G1 X113.575 Y116.648 E.35593
G1 X113.381 Y117.294 E.02436
G1 X113.172 Y117.732 E.01751
G1 X112.857 Y118.203 E.02044
G1 X112.521 Y118.573 E.01807
G1 X112.078 Y118.936 E.02068
