; HEADER_BLOCK_START
; generated by Creality_Print V5.0.0.8636 on 2024-08-16 at 14:12:08
; total layer number: 133
; filament_density: 1.24
; filament_diameter: 1.75
; max_z_height: 10.76
; HEADER_BLOCK_END

; MINX = 92.50
; MINY = 104.00
; MINZ = 0.00
; MAXX = 127.50
; MAXY = 116.00
; MAXZ = 10.80

; THUMBNAIL_BLOCK_START

;
; THUMBNAIL_BLOCK_END

; THUMBNAIL_BLOCK_START

;
; THUMBNAIL_BLOCK_END

; external perimeters extrusion width = 0.42mm
; perimeters extrusion width = 0.45mm
; infill extrusion width = 0.45mm
; solid infill extrusion width = 0.42mm
; top infill extrusion width = 0.42mm
; first layer extrusion width = 0.50mm

; EXECUTABLE_BLOCK_START
M73 P0 R12
M106 S0
M106 P2 S0
;TYPE:Custom
M140 S0
M104 S0 
START_PRINT EXTRUDER_TEMP=215 BED_TEMP=50
G90
G21
M83 ; use relative distances for extrusion
; filament start gcode
M106 S0
M106 P2 S0
;LAYER_CHANGE
;Z:0.2
;HEIGHT:0.2
;BEFORE_LAYER_CHANGE
;0.2
G92 E0

G1 E-.5 F2400
;AFTER_LAYER_CHANGE
;0.2
;_SET_FAN_SPEED_CHANGING_LAYER
SET_VELOCITY_LIMIT ACCEL=500 ACCEL_TO_DECEL=250
; printing object 2024-08-16-HS311-C24T-test-lego-arm-3stud.stl id:4644621111676747011 copy 0
G1 X91.463 Y102.871 F30000
G1 Z.4
G1 Z.2
G1 E.5 F2400
;TYPE:Brim
;WIDTH:0.5
G1 F3000
G1 X92.205 Y102.304 E.0337
G1 X92.997 Y101.815 E.03362
G1 X93.833 Y101.408 E.03358
G1 X94.563 Y101.133 E.02815
G1 X95.418 Y100.893 E.03207
G1 X96.194 Y100.751 E.02851
G1 X96.901 Y100.678 E.02564
G1 X121.57 Y99.659 E.89147
G1 X122.378 Y99.696 E.0292
G1 X123.235 Y99.805 E.03119
G1 X123.74 Y99.904 E.01859
G1 X124.24 Y100.028 E.0186
G1 X125.063 Y100.292 E.03121
G1 X125.747 Y100.571 E.02668
G1 X126.521 Y100.959 E.03124
G1 X126.964 Y101.22 E.01856
G1 X127.394 Y101.503 E.01861
G1 X128.043 Y101.991 E.02931
G1 X128.687 Y102.564 E.03111
G1 X129.305 Y103.215 E.03243
G1 X129.922 Y103.998 E.03598
G1 X130.392 Y104.72 E.03112
G1 X130.817 Y105.512 E.03245
G1 X131.159 Y106.304 E.03114
G1 X131.387 Y106.968 E.02533
G1 X131.605 Y107.802 E.03115
G1 X131.746 Y108.601 E.0293
G1 X131.803 Y109.114 E.01861
G1 X131.835 Y109.627 E.01856
G1 X131.83 Y110.492 E.03124
G1 X131.768 Y111.228 E.02666
G1 X131.602 Y112.213 E.03606
G1 X131.383 Y113.045 E.03107
G1 X131.081 Y113.892 E.03247
G1 X130.747 Y114.629 E.02923
G1 X130.33 Y115.383 E.03111
G1 X129.83 Y116.129 E.03242
G1 X129.201 Y116.902 E.036
G1 X128.598 Y117.52 E.03116
G1 X128.073 Y117.984 E.02532
G1 X127.354 Y118.525 E.03247
G1 X126.505 Y119.05 E.03605
G1 X125.735 Y119.435 E.03109
G1 X125.11 Y119.691 E.02438
G1 X124.622 Y119.859 E.01864
G1 X124.125 Y120.003 E.01867
G1 X123.608 Y120.125 E.01917
G1 X123.077 Y120.221 E.01949
G1 X122.415 Y120.301 E.0241
G1 X121.876 Y120.335 E.01949
G1 X121.383 Y120.341 E.01779
G1 X97.043 Y119.33 E.87958
G1 X96.483 Y119.286 E.02028
G1 X95.974 Y119.216 E.01855
G1 X95.417 Y119.107 E.02049
G1 X94.885 Y118.968 E.01984
G1 X94.21 Y118.743 E.0257
G1 X93.825 Y118.589 E.01497
G1 X93.325 Y118.357 E.0199
G1 X92.827 Y118.089 E.02044
G1 X92.202 Y117.694 E.02668
G1 X91.745 Y117.359 E.02045
G1 X91.348 Y117.029 E.01862
G1 X90.914 Y116.625 E.02144
G1 X90.524 Y116.213 E.02046
G1 X90.144 Y115.756 E.02147
G1 X89.727 Y115.181 E.02566
G1 X89.436 Y114.715 E.01984
G1 X89.164 Y114.216 E.02049
G1 X88.931 Y113.72 E.01979
G1 X88.601 Y112.84 E.03396
G1 X88.362 Y111.938 E.03368
G1 X88.214 Y111.019 E.0336
G1 X88.16 Y110.135 E.032
G1 X88.182 Y109.345 E.02852
G1 X88.293 Y108.42 E.03365
G1 X88.496 Y107.511 E.03362
G1 X88.79 Y106.624 E.03371
G1 X88.988 Y106.153 E.01847
G1 X89.233 Y105.651 E.02015
G1 X89.631 Y104.966 E.02861
G1 X89.919 Y104.542 E.0185
G1 X90.259 Y104.1 E.02015
G1 X90.784 Y103.507 E.0286
G1 X91.434 Y102.899 E.03213
G1 X91.746 Y103.232 F30000
G1 F3000
G1 X91.754 Y103.225 E.00036
G1 X92.459 Y102.686 E.03205
G1 X93.212 Y102.22 E.03197
G1 X94.02 Y101.826 E.03247
G1 X94.711 Y101.566 E.02665
G1 X95.515 Y101.341 E.03014
G1 X96.254 Y101.204 E.02713
G1 X96.938 Y101.133 E.02483
G1 X121.575 Y100.117 E.8903
G1 X122.344 Y100.153 E.0278
G1 X123.17 Y100.258 E.03006
G1 X124.107 Y100.466 E.03467
G1 X124.902 Y100.72 E.03011
G1 X125.563 Y100.99 E.02578
G1 X126.309 Y101.365 E.03015
G1 X127.124 Y101.872 E.03468
G1 X127.748 Y102.342 E.02819
G1 X128.372 Y102.897 E.03015
G1 X128.963 Y103.52 E.03099
G1 X129.546 Y104.26 E.03403
G1 X129.995 Y104.949 E.02969
G1 X130.403 Y105.706 E.03104
G1 X130.73 Y106.464 E.02983
G1 X130.95 Y107.105 E.02445
G1 X131.159 Y107.906 E.02988
G1 X131.295 Y108.674 E.02819
G1 X131.377 Y109.631 E.03468
G1 X131.373 Y110.466 E.03015
G1 X131.313 Y111.176 E.02573
G1 X131.156 Y112.11 E.03419
G1 X130.948 Y112.904 E.02962
G1 X130.659 Y113.715 E.0311
G1 X130.336 Y114.429 E.02829
G1 X129.936 Y115.15 E.02975
G1 X129.458 Y115.862 E.03097
G1 X128.863 Y116.593 E.03404
G1 X128.287 Y117.185 E.02983
G1 X127.779 Y117.633 E.02443
G1 X127.091 Y118.15 E.0311
G1 X126.287 Y118.647 E.0341
G1 X125.541 Y119.021 E.03014
G1 X124.942 Y119.265 E.02337
G1 X124.015 Y119.559 E.03508
G1 X123.511 Y119.678 E.0187
G1 X123.005 Y119.769 E.01858
G1 X122.377 Y119.845 E.02284
G1 X121.386 Y119.884 E.03579
G1 X97.073 Y118.874 E.8786
G1 X96.536 Y118.831 E.01946
G1 X96.053 Y118.766 E.01759
G1 X95.523 Y118.661 E.01951
G1 X95.02 Y118.531 E.01876
G1 X94.372 Y118.315 E.02469
G1 X94.003 Y118.167 E.01433
G1 X93.526 Y117.946 E.01898
G1 X93.053 Y117.691 E.0194
G1 X92.464 Y117.319 E.02518
G1 X92.03 Y117.001 E.01941
G1 X91.647 Y116.683 E.01795
G1 X91.233 Y116.297 E.02046
G1 X90.863 Y115.906 E.01942
G1 X90.502 Y115.472 E.0204
G1 X90.109 Y114.929 E.0242
G1 X89.833 Y114.488 E.0188
G1 X89.574 Y114.014 E.0195
G1 X89.351 Y113.538 E.01898
G1 X89.039 Y112.707 E.03203
G1 X88.811 Y111.85 E.03203
G1 X88.67 Y110.975 E.03197
G1 X88.618 Y110.133 E.03049
G1 X88.639 Y109.372 E.02747
G1 X88.746 Y108.49 E.03208
G1 X88.94 Y107.626 E.03197
G1 X89.22 Y106.78 E.03219
G1 X89.406 Y106.338 E.0173
G1 X89.634 Y105.871 E.01878
G1 X90.021 Y105.206 E.02778
G1 X90.292 Y104.807 E.01741
G1 X90.608 Y104.395 E.01877
G1 X91.108 Y103.831 E.02719
G1 X91.717 Y103.26 E.03016
G1 X92.03 Y103.594 F30000
G1 F3000
G1 X92.055 Y103.57 E.00123
G1 X92.724 Y103.059 E.0304
G1 X93.439 Y102.618 E.03032
G1 X94.207 Y102.244 E.03085
G1 X94.859 Y101.999 E.02515
G1 X95.612 Y101.788 E.02824
G1 X96.314 Y101.658 E.02576
G1 X96.975 Y101.589 E.02401
G1 X121.58 Y100.575 E.88912
G1 X122.31 Y100.609 E.02639
G1 X123.097 Y100.71 E.02867
G1 X123.982 Y100.907 E.03272
G1 X124.741 Y101.149 E.02875
G1 X125.379 Y101.409 E.02488
G1 X126.09 Y101.767 E.02878
G1 X126.861 Y102.247 E.03275
G1 X127.463 Y102.7 E.02721
G1 X128.058 Y103.23 E.02878
G1 X128.621 Y103.824 E.02954
G1 X129.171 Y104.522 E.03209
G1 X129.605 Y105.188 E.02869
G1 X129.988 Y105.9 E.02921
G1 X130.305 Y106.634 E.02889
G1 X130.514 Y107.242 E.02319
G1 X130.711 Y107.998 E.0282
G1 X130.84 Y108.728 E.02677
G1 X130.919 Y109.644 E.03319
G1 X130.916 Y110.441 E.02878
G1 X130.859 Y111.125 E.02479
G1 X130.71 Y112.008 E.03233
G1 X130.509 Y112.774 E.02861
G1 X130.237 Y113.539 E.02929
G1 X129.924 Y114.228 E.02734
G1 X129.549 Y114.906 E.02797
G1 X129.086 Y115.595 E.02995
G1 X128.525 Y116.284 E.03211
G1 X127.975 Y116.85 E.0285
G1 X127.495 Y117.275 E.02314
G1 X126.827 Y117.776 E.03012
G1 X126.07 Y118.244 E.03217
G1 X125.356 Y118.602 E.0288
G1 X124.791 Y118.833 E.02206
G1 X123.889 Y119.119 E.03418
G1 X123.415 Y119.231 E.01759
G1 X122.941 Y119.316 E.01739
G1 X122.335 Y119.39 E.02203
G1 X121.381 Y119.426 E.03445
G1 X97.103 Y118.418 E.87733
G1 X96.589 Y118.377 E.01865
G1 X96.132 Y118.315 E.01664
G1 X95.629 Y118.216 E.01852
G1 X95.146 Y118.091 E.01802
G1 X94.521 Y117.882 E.02377
G1 X93.738 Y117.54 E.03088
G1 X93.28 Y117.294 E.01876
G1 X92.725 Y116.943 E.02369
G1 X92.315 Y116.643 E.01837
G1 X91.946 Y116.337 E.01727
G1 X91.552 Y115.969 E.01948
G1 X91.203 Y115.599 E.01837
G1 X90.86 Y115.188 E.01933
G1 X90.491 Y114.677 E.02275
G1 X90.23 Y114.26 E.01777
G1 X89.984 Y113.811 E.0185
G1 X89.771 Y113.355 E.01817
G1 X89.477 Y112.574 E.03011
G1 X89.261 Y111.761 E.03038
M73 P1 R12
G1 X89.126 Y110.931 E.03034
G1 X89.076 Y110.131 E.02896
G1 X89.096 Y109.4 E.02641
G1 X89.198 Y108.561 E.03049
G1 X89.383 Y107.742 E.03033
G1 X89.65 Y106.936 E.03067
G1 X89.824 Y106.524 E.01614
G1 X90.036 Y106.091 E.01741
G1 X90.411 Y105.445 E.02695
G1 X90.665 Y105.072 E.01631
G1 X90.958 Y104.689 E.01741
G1 X91.432 Y104.155 E.02579
G1 X92.001 Y103.621 E.02818
G1 X92.314 Y103.954 F30000
G1 F3000
G1 X92.346 Y103.924 E.0016
G1 X92.978 Y103.44 E.02875
G1 X93.654 Y103.023 E.02867
G1 X94.382 Y102.667 E.02927
G1 X94.996 Y102.436 E.02368
G1 X95.722 Y102.233 E.02722
G1 X96.374 Y102.112 E.02394
G1 X97.013 Y102.045 E.02319
G1 X121.585 Y101.032 E.88794
G1 X122.275 Y101.065 E.02497
G1 X123.025 Y101.162 E.02728
G1 X123.857 Y101.347 E.03078
G1 X124.579 Y101.577 E.02738
G1 X125.194 Y101.828 E.02396
G1 X125.872 Y102.17 E.02741
G1 X126.597 Y102.621 E.03083
G1 X127.177 Y103.057 E.02622
G1 X127.744 Y103.562 E.02741
G1 X128.278 Y104.128 E.0281
G1 X128.795 Y104.784 E.03016
G1 X129.214 Y105.426 E.02768
G1 X129.578 Y106.105 E.0278
G1 X129.88 Y106.805 E.02752
G1 X130.077 Y107.379 E.02192
G1 X130.263 Y108.09 E.02653
G1 X130.385 Y108.781 E.02536
G1 X130.462 Y109.656 E.0317
G1 X130.459 Y110.415 E.02741
G1 X130.404 Y111.073 E.02385
G1 X130.263 Y111.906 E.03048
G1 X130.073 Y112.634 E.02717
G1 X129.814 Y113.362 E.0279
G1 X129.518 Y114.018 E.02599
G1 X129.161 Y114.662 E.02659
G1 X128.714 Y115.327 E.02893
G1 X128.187 Y115.976 E.03017
G1 X127.663 Y116.516 E.02718
G1 X127.21 Y116.917 E.02184
G1 X126.564 Y117.401 E.02914
G1 X125.852 Y117.842 E.03024
G1 X125.172 Y118.183 E.02747
G1 X124.63 Y118.405 E.02114
G1 X123.772 Y118.676 E.03249
G1 X122.88 Y118.863 E.0329
G1 X122.293 Y118.934 E.02135
G1 X121.377 Y118.968 E.0331
G1 X97.133 Y117.961 E.87608
G1 X96.641 Y117.923 E.01783
G1 X96.203 Y117.863 E.01597
G1 X95.726 Y117.769 E.01754
G1 X95.271 Y117.651 E.01697
G1 X94.68 Y117.453 E.02252
G1 X93.943 Y117.131 E.02904
G1 X93.507 Y116.896 E.01788
G1 X92.987 Y116.568 E.02221
G1 X92.599 Y116.284 E.01733
G1 X92.252 Y115.996 E.01629
G1 X91.878 Y115.648 E.01846
G1 X91.542 Y115.293 E.01764
G1 X91.219 Y114.903 E.01826
G1 X90.868 Y114.418 E.02164
G1 X90.622 Y114.026 E.0167
G1 X90.39 Y113.6 E.0175
G1 X90.19 Y113.172 E.01705
G1 X89.916 Y112.441 E.0282
G1 X89.71 Y111.672 E.02874
G1 X89.582 Y110.887 E.02872
G1 X89.534 Y110.129 E.02743
G1 X89.553 Y109.427 E.02534
G1 X89.651 Y108.633 E.0289
G1 X89.826 Y107.858 E.02868
G1 X90.082 Y107.088 E.02929
G1 X90.436 Y106.314 E.03074
G1 X90.803 Y105.682 E.02639
G1 X91.306 Y104.987 E.03098
G1 X91.764 Y104.469 E.02497
G1 X92.285 Y103.982 E.02573
G1 X92.597 Y104.315 F30000
G1 F3000
G1 X92.637 Y104.278 E.00197
G1 X93.233 Y103.821 E.0271
G1 X93.869 Y103.427 E.02701
G1 X94.558 Y103.09 E.02769
G1 X95.133 Y102.873 E.0222
G1 X95.832 Y102.677 E.02619
G1 X96.445 Y102.564 E.02252
G1 X97.05 Y102.501 E.02197
G1 X121.589 Y101.49 E.88676
G1 X122.241 Y101.522 E.02355
G1 X122.952 Y101.614 E.02589
G1 X123.732 Y101.788 E.02886
G1 X124.429 Y102.009 E.0264
G1 X125.009 Y102.246 E.02265
G1 X125.653 Y102.572 E.02604
G1 X126.333 Y102.995 E.02893
G1 X126.891 Y103.415 E.02523
G1 X127.429 Y103.895 E.02602
G1 X127.936 Y104.432 E.02666
G1 X128.42 Y105.046 E.02824
G1 X128.823 Y105.665 E.02667
G1 X129.169 Y106.309 E.02639
G1 X129.455 Y106.974 E.02615
G1 X129.64 Y107.516 E.02066
G1 X129.814 Y108.182 E.02488
G1 X129.931 Y108.835 E.02394
G1 X130.004 Y109.669 E.03021
G1 X130.002 Y110.39 E.02602
G1 X129.949 Y111.022 E.0229
G1 X129.817 Y111.804 E.02863
G1 X129.637 Y112.493 E.02573
G1 X129.392 Y113.186 E.02652
G1 X129.111 Y113.808 E.02463
G1 X128.774 Y114.418 E.0252
G1 X128.343 Y115.06 E.0279
G1 X127.849 Y115.667 E.02825
G1 X127.35 Y116.181 E.02586
G1 X126.925 Y116.558 E.02054
G1 X126.301 Y117.026 E.02815
G1 X125.634 Y117.439 E.02833
G1 X124.987 Y117.764 E.02613
G1 X124.469 Y117.976 E.02023
G1 X123.649 Y118.235 E.03103
G1 X122.811 Y118.41 E.03091
G1 X122.251 Y118.478 E.02038
G1 X121.372 Y118.511 E.03176
G1 X97.163 Y117.505 E.87483
G1 X96.274 Y117.411 E.03231
G1 X95.824 Y117.323 E.01655
G1 X95.397 Y117.211 E.01592
G1 X94.839 Y117.023 E.02127
G1 X94.148 Y116.722 E.02722
G1 X93.733 Y116.499 E.017
G1 X93.248 Y116.192 E.02074
G1 X92.883 Y115.926 E.01629
G1 X92.557 Y115.655 E.01532
G1 X92.203 Y115.326 E.01744
G1 X91.882 Y114.986 E.0169
G1 X91.578 Y114.619 E.01719
G1 X91.244 Y114.158 E.02054
G1 X91.015 Y113.791 E.01563
G1 X90.796 Y113.39 E.0165
G1 X90.61 Y112.99 E.01594
G1 X90.354 Y112.307 E.02632
G1 X90.159 Y111.583 E.0271
G1 X90.038 Y110.842 E.02709
G1 X89.992 Y110.127 E.02588
G1 X90.01 Y109.455 E.02426
G1 X90.103 Y108.705 E.0273
G1 X90.269 Y107.975 E.02704
G1 X90.511 Y107.249 E.02761
G1 X90.839 Y106.53 E.02854
G1 X91.19 Y105.926 E.02524
G1 X91.659 Y105.279 E.02885
G1 X92.097 Y104.784 E.02387
G1 X92.568 Y104.343 E.02329
G1 X92.86 Y104.696 F30000
G1 F3000
G1 X93.284 Y104.346 E.01984
G1 X93.845 Y103.968 E.02443
G1 X94.461 Y103.635 E.02527
G1 X95.11 Y103.364 E.0254
G1 X95.724 Y103.174 E.02323
G1 X96.376 Y103.037 E.02403
G1 X97.158 Y102.952 E.02839
G1 X121.176 Y101.95 E.86795
G1 X121.938 Y101.958 E.02753
G1 X122.673 Y102.032 E.02667
G1 X123.426 Y102.18 E.0277
G1 X124.106 Y102.38 E.02559
G1 X124.82 Y102.662 E.02772
G1 X125.454 Y102.984 E.02569
G1 X126.085 Y103.379 E.02688
G1 X126.672 Y103.826 E.02663
G1 X127.234 Y104.347 E.02766
G1 X127.768 Y104.945 E.02897
G1 X128.264 Y105.629 E.03049
G1 X128.623 Y106.243 E.02568
G1 X128.938 Y106.912 E.02671
G1 X129.178 Y107.568 E.02524
G1 X129.367 Y108.275 E.02643
G1 X129.488 Y108.977 E.0257
G1 X129.549 Y109.714 E.02669
G1 X129.544 Y110.404 E.02492
G1 X129.473 Y111.134 E.02648
G1 X129.337 Y111.86 E.02666
G1 X129.145 Y112.534 E.0253
G1 X128.86 Y113.27 E.02849
G1 X128.555 Y113.886 E.02484
G1 X128.155 Y114.536 E.02754
G1 X127.747 Y115.084 E.0247
G1 X127.282 Y115.606 E.02522
G1 X126.723 Y116.13 E.02766
G1 X126.164 Y116.566 E.0256
G1 X125.519 Y116.979 E.02769
G1 X124.892 Y117.305 E.02549
G1 X124.21 Y117.584 E.02662
G1 X123.562 Y117.785 E.02448
G1 X122.922 Y117.928 E.02368
G1 X122.295 Y118.015 E.02286
G1 X121.749 Y118.051 E.01978
G1 X121.178 Y118.05 E.0206
G1 X97.256 Y117.053 E.86448
G1 X96.357 Y116.961 E.03264
G1 X95.893 Y116.869 E.01706
G1 X95.433 Y116.745 E.01722
G1 X94.431 Y116.346 E.03893
G1 X93.572 Y115.853 E.03577
G1 X92.74 Y115.204 E.03811
G1 X92.372 Y114.845 E.01856
G1 X92.04 Y114.464 E.01823
G1 X91.384 Y113.516 E.04165
G1 X91.172 Y113.119 E.01625
G1 X90.968 Y112.662 E.01807
G1 X90.697 Y111.853 E.03079
G1 X90.539 Y111.132 E.02666
G1 X90.462 Y110.461 E.02439
G1 X90.451 Y109.76 E.02528
G1 X90.51 Y109.06 E.02538
G1 X90.638 Y108.369 E.02539
G1 X90.835 Y107.692 E.02544
G1 X91.07 Y107.1 E.02301
G1 X91.417 Y106.43 E.02724
G1 X91.802 Y105.842 E.02537
G1 X92.246 Y105.294 E.02547
G1 X92.741 Y104.795 E.02537
G1 X92.829 Y104.721 E.00416
G1 X93.117 Y105.073 F30000
G1 F3000
G1 X93.578 Y104.695 E.02151
G1 X94.104 Y104.344 E.02282
G1 X94.682 Y104.035 E.02366
G1 X95.29 Y103.784 E.02375
G1 X95.863 Y103.609 E.02165
G1 X96.474 Y103.483 E.02253
G1 X97.172 Y103.409 E.02533
G1 X121.198 Y102.406 E.86824
G1 X121.888 Y102.412 E.0249
G1 X122.581 Y102.48 E.02514
G1 X123.293 Y102.617 E.02618
G1 X123.934 Y102.803 E.0241
G1 X124.609 Y103.068 E.02618
G1 X125.208 Y103.369 E.02422
G1 X125.803 Y103.739 E.02529
G1 X126.4 Y104.194 E.02709
G1 X126.927 Y104.685 E.026
G1 X127.43 Y105.253 E.02741
G1 X127.867 Y105.855 E.02686
G1 X128.208 Y106.433 E.02423
G1 X128.508 Y107.065 E.02523
G1 X128.736 Y107.682 E.02377
G1 X128.916 Y108.349 E.02495
G1 X129.032 Y109.008 E.02415
G1 X129.093 Y109.757 E.02713
G1 X129.087 Y110.405 E.02339
G1 X129.018 Y111.094 E.02501
G1 X128.887 Y111.779 E.02517
G1 X128.704 Y112.413 E.02381
G1 X128.432 Y113.109 E.02697
G1 X128.143 Y113.686 E.02333
G1 X127.764 Y114.3 E.02605
G1 X127.378 Y114.815 E.02322
G1 X126.938 Y115.306 E.0238
G1 X126.408 Y115.8 E.02616
G1 X125.88 Y116.208 E.02409
G1 X125.268 Y116.597 E.02618
G1 X124.678 Y116.901 E.02399
G1 X124.033 Y117.163 E.02512
G1 X123.423 Y117.35 E.02303
G1 X122.863 Y117.475 E.02071
G1 X122.269 Y117.559 E.02168
G1 X121.754 Y117.594 E.01865
G1 X121.2 Y117.594 E.01998
G1 X97.271 Y116.596 E.86473
M73 P2 R12
G1 X96.398 Y116.505 E.0317
G1 X95.98 Y116.421 E.0154
G1 X95.546 Y116.302 E.01623
