; HEADER_BLOCK_START
; generated by Creality_Print V5.0.0.8636 on 2024-08-17 at 11:51:12
; total layer number: 126
; filament_density: 1.24
; filament_diameter: 1.75
; max_z_height: 10.20
; HEADER_BLOCK_END

; MINX = 93.00
; MINY = 104.00
; MINZ = 0.00
; MAXX = 127.00
; MAXY = 116.00
; MAXZ = 10.20

; THUMBNAIL_BLOCK_START

;
; THUMBNAIL_BLOCK_END

; THUMBNAIL_BLOCK_START

;
; THUMBNAIL_BLOCK_END

; external perimeters extrusion width = 0.42mm
; perimeters extrusion width = 0.45mm
; infill extrusion width = 0.45mm
; solid infill extrusion width = 0.42mm
; top infill extrusion width = 0.42mm
; first layer extrusion width = 0.50mm

; EXECUTABLE_BLOCK_START
M73 P0 R12
M106 S0
M106 P2 S0
;TYPE:Custom
M140 S0
M104 S0 
START_PRINT EXTRUDER_TEMP=215 BED_TEMP=50
G90
G21
M83 ; use relative distances for extrusion
; filament start gcode
M106 S0
M106 P2 S0
;LAYER_CHANGE
;Z:0.2
;HEIGHT:0.2
;BEFORE_LAYER_CHANGE
;0.2
G92 E0

G1 E-.5 F2400
;AFTER_LAYER_CHANGE
;0.2
;_SET_FAN_SPEED_CHANGING_LAYER
SET_VELOCITY_LIMIT ACCEL=500 ACCEL_TO_DECEL=250
; printing object servo-arm-c24t-2r-1l.stl id:0 copy 0
G1 X91.652 Y103.147 F30000
G1 Z.4
G1 Z.2
G1 E.5 F2400
;TYPE:Brim
;WIDTH:0.5
G1 F3000
G1 X92.134 Y102.731 E.02299
G1 X92.821 Y102.226 E.03078
G1 X93.488 Y101.82 E.0282
G1 X94.121 Y101.503 E.02556
G1 X94.888 Y101.192 E.0299
G1 X95.419 Y101.022 E.02012
G1 X95.96 Y100.884 E.02015
G1 X96.659 Y100.755 E.02567
G1 X97.205 Y100.692 E.01985
G1 X97.683 Y100.664 E.01728
G1 X103.748 Y99.906 E.22068
G1 X104.681 Y99.743 E.0342
G1 X105.365 Y99.678 E.0248
G1 X106.233 Y99.661 E.03137
G1 X122.606 Y100.678 E.59231
G1 X123.121 Y100.726 E.01866
G1 X123.71 Y100.816 E.02151
G1 X124.264 Y100.937 E.02047
G1 X124.836 Y101.1 E.02149
G1 X125.361 Y101.285 E.02009
G1 X126.216 Y101.664 E.03376
G1 X126.836 Y102.007 E.02559
G1 X127.606 Y102.527 E.03356
G1 X128.036 Y102.87 E.01985
G1 X128.717 Y103.508 E.03371
G1 X129.242 Y104.1 E.02853
G1 X129.581 Y104.542 E.02015
G1 X129.869 Y104.966 E.0185
G1 X130.267 Y105.651 E.02861
G1 X130.512 Y106.152 E.02013
G1 X130.71 Y106.622 E.01841
G1 X131.003 Y107.509 E.03371
G1 X131.207 Y108.42 E.0337
G1 X131.318 Y109.344 E.03362
G1 X131.337 Y110.273 E.03355
G1 X131.264 Y111.204 E.03373
G1 X131.128 Y111.981 E.02846
G1 X130.91 Y112.803 E.03071
G1 X130.586 Y113.68 E.03376
G1 X130.415 Y114.056 E.0149
G1 X130.141 Y114.581 E.02139
G1 X129.688 Y115.306 E.03085
G1 X129.19 Y115.964 E.0298
G1 X128.617 Y116.593 E.03073
G1 X128.008 Y117.153 E.02988
G1 X127.607 Y117.472 E.0185
G1 X127.144 Y117.798 E.02044
G1 X126.473 Y118.2 E.02823
G1 X125.676 Y118.588 E.03203
G1 X124.759 Y118.924 E.03527
G1 X123.934 Y119.139 E.03075
G1 X123.387 Y119.237 E.02007
G1 X122.603 Y119.322 E.02847
G1 X106.712 Y120.317 E.57488
G1 X105.709 Y120.338 E.03622
G1 X104.825 Y120.275 E.032
G1 X104.339 Y120.208 E.01773
G1 X103.748 Y120.095 E.02173
G1 X97.681 Y119.336 E.22075
G1 X96.797 Y119.263 E.03205
G1 X96.246 Y119.175 E.02012
G1 X95.744 Y119.065 E.01855
G1 X95.061 Y118.867 E.02569
G1 X94.671 Y118.728 E.01496
G1 X94.162 Y118.517 E.0199
G1 X93.652 Y118.268 E.02049
G1 X93.172 Y117.997 E.0199
G1 X92.822 Y117.775 E.01497
G1 X92.246 Y117.359 E.02562
G1 X91.546 Y116.753 E.03344
G1 X91.149 Y116.351 E.02041
G1 X90.812 Y115.966 E.01847
G1 X90.253 Y115.219 E.03369
G1 X89.839 Y114.546 E.02854
G1 X89.489 Y113.849 E.02815
G1 X89.148 Y112.981 E.03366
G1 X88.895 Y112.085 E.03364
G1 X88.732 Y111.168 E.03362
G1 X88.662 Y110.239 E.03362
G1 X88.681 Y109.353 E.03201
G1 X88.792 Y108.429 E.03358
G1 X88.958 Y107.657 E.02853
G1 X89.22 Y106.809 E.03202
G1 X89.602 Y105.911 E.03524
G1 X90.05 Y105.095 E.03362
G1 X90.579 Y104.327 E.03369
G1 X91.029 Y103.782 E.02551
G1 X91.624 Y103.176 E.03066
G1 X91.95 Y103.497 F30000
G1 F3000
G1 X91.969 Y103.477 E.00098
G1 X92.423 Y103.085 E.02166
G1 X93.071 Y102.61 E.02899
G1 X93.705 Y102.223 E.02683
G1 X94.304 Y101.922 E.02421
G1 X95.039 Y101.624 E.02863
G1 X95.542 Y101.463 E.01905
G1 X96.063 Y101.33 E.01941
G1 X96.731 Y101.207 E.02456
G1 X97.241 Y101.148 E.01853
G1 X97.744 Y101.117 E.01818
G1 X103.801 Y100.359 E.22041
G1 X104.747 Y100.196 E.03466
G1 X105.396 Y100.134 E.02353
G1 X106.229 Y100.119 E.03009
G1 X122.569 Y101.134 E.59109
G1 X123.061 Y101.18 E.01786
G1 X123.631 Y101.267 E.02082
G1 X124.157 Y101.382 E.01942
G1 X124.702 Y101.537 E.02046
G1 X125.197 Y101.712 E.01898
G1 X126.006 Y102.072 E.03197
G1 X126.602 Y102.401 E.02457
G1 X127.331 Y102.893 E.03175
G1 X127.741 Y103.22 E.01893
G1 X128.394 Y103.832 E.03232
G1 X128.885 Y104.387 E.02676
G1 X129.213 Y104.813 E.01941
G1 X129.485 Y105.214 E.01748
G1 X129.861 Y105.863 E.02708
G1 X130.094 Y106.338 E.01911
G1 X130.279 Y106.778 E.01725
G1 X130.56 Y107.624 E.03219
G1 X130.754 Y108.49 E.03205
G1 X130.861 Y109.37 E.03198
G1 X130.88 Y110.253 E.0319
G1 X130.81 Y111.141 E.03215
G1 X130.68 Y111.889 E.02742
G1 X130.472 Y112.671 E.02922
G1 X130.161 Y113.511 E.03233
G1 X130.002 Y113.859 E.01381
G1 X129.746 Y114.349 E.01996
G1 X129.314 Y115.041 E.02945
G1 X128.833 Y115.676 E.02876
G1 X128.288 Y116.275 E.02924
G1 X127.706 Y116.808 E.0285
G1 X127.329 Y117.108 E.0174
G1 X126.899 Y117.412 E.01902
G1 X126.25 Y117.8 E.0273
G1 X125.49 Y118.169 E.0305
G1 X124.628 Y118.485 E.03314
G1 X123.831 Y118.693 E.02976
G1 X123.317 Y118.785 E.01885
G1 X122.561 Y118.867 E.02745
G1 X106.696 Y119.86 E.57394
G1 X105.727 Y119.88 E.035
G1 X104.868 Y119.819 E.03108
G1 X104.41 Y119.756 E.01671
G1 X103.8 Y119.64 E.02241
G1 X97.741 Y118.883 E.22049
G1 X96.846 Y118.808 E.0324
G1 X96.328 Y118.725 E.01897
G1 X95.853 Y118.621 E.01755
G1 X95.205 Y118.433 E.02435
G1 X94.346 Y118.098 E.03328
G1 X93.868 Y117.865 E.01921
G1 X93.404 Y117.603 E.01925
G1 X93.075 Y117.394 E.01406
G1 X92.526 Y116.997 E.02449
G1 X91.855 Y116.416 E.03203
G1 X91.487 Y116.042 E.01892
G1 X91.171 Y115.682 E.01731
G1 X90.635 Y114.967 E.03227
G1 X90.242 Y114.328 E.02709
G1 X89.904 Y113.656 E.02713
G1 X89.579 Y112.829 E.03211
G1 X89.343 Y111.989 E.03149
G1 X89.188 Y111.117 E.03197
G1 X89.12 Y110.233 E.032
G1 X89.137 Y109.392 E.0304
G1 X89.242 Y108.511 E.03202
G1 X89.402 Y107.767 E.02748
G1 X89.653 Y106.96 E.03048
G1 X90.017 Y106.105 E.03357
G1 X90.444 Y105.33 E.03195
G1 X90.948 Y104.598 E.03211
G1 X91.373 Y104.084 E.02407
G1 X91.922 Y103.525 E.02828
G1 X92.248 Y103.846 F30000
G1 F3000
G1 X92.286 Y103.807 E.00197
G1 X92.713 Y103.44 E.02033
G1 X93.33 Y102.987 E.02765
G1 X93.922 Y102.626 E.02503
G1 X94.488 Y102.341 E.02287
G1 X95.19 Y102.056 E.02736
G1 X95.672 Y101.902 E.01827
G1 X96.165 Y101.776 E.01837
G1 X96.804 Y101.659 E.02344
G1 X97.285 Y101.603 E.01749
G1 X97.805 Y101.57 E.0188
G1 X103.855 Y100.813 E.22014
G1 X104.813 Y100.649 E.03511
G1 X105.427 Y100.591 E.02226
G1 X106.225 Y100.576 E.02882
G1 X122.531 Y101.589 E.58988
G1 X123.001 Y101.633 E.01706
G1 X123.552 Y101.717 E.02012
G1 X124.049 Y101.826 E.01837
G1 X124.567 Y101.974 E.01943
G1 X125.033 Y102.139 E.01787
G1 X125.797 Y102.479 E.03019
G1 X126.358 Y102.788 E.02311
G1 X127.056 Y103.259 E.03039
G1 X127.445 Y103.57 E.01801
G1 X128.07 Y104.156 E.03093
G1 X128.529 Y104.674 E.02501
G1 X128.839 Y105.078 E.01838
G1 X129.1 Y105.462 E.01674
G1 X129.455 Y106.074 E.02556
G1 X129.676 Y106.524 E.0181
G1 X129.853 Y106.944 E.01647
G1 X130.12 Y107.753 E.03077
G1 X130.304 Y108.575 E.0304
G1 X130.405 Y109.409 E.03033
G1 X130.422 Y110.247 E.03025
G1 X130.357 Y111.077 E.03008
G1 X130.232 Y111.797 E.02637
G1 X130.034 Y112.539 E.02773
G1 X129.736 Y113.341 E.0309
G1 X129.346 Y114.126 E.03164
G1 X128.941 Y114.776 E.02766
G1 X128.477 Y115.388 E.02771
G1 X127.959 Y115.956 E.02776
G1 X127.413 Y116.457 E.02678
G1 X127.052 Y116.745 E.01665
G1 X126.645 Y117.031 E.01797
G1 X126.038 Y117.395 E.02557
G1 X125.317 Y117.745 E.02891
G1 X124.498 Y118.046 E.03152
G1 X123.738 Y118.245 E.02837
G1 X123.247 Y118.333 E.018
G1 X122.519 Y118.412 E.02643
G1 X106.68 Y119.403 E.57301
G1 X105.745 Y119.422 E.03378
G1 X104.921 Y119.365 E.02983
G1 X103.854 Y119.187 E.03904
G1 X97.8 Y118.43 E.22029
G1 X96.897 Y118.353 E.03274
G1 X96.417 Y118.276 E.01755
G1 X95.97 Y118.179 E.01651
G1 X95.346 Y117.997 E.02345
G1 X94.535 Y117.681 E.03145
G1 X94.077 Y117.458 E.01838
G1 X93.329 Y117.013 E.03143
G1 X92.805 Y116.634 E.02335
G1 X92.172 Y116.086 E.03024
G1 X91.825 Y115.734 E.01784
G1 X91.53 Y115.398 E.01615
G1 X91.017 Y114.714 E.03085
G1 X90.639 Y114.1 E.02606
G1 X90.32 Y113.464 E.02567
G1 X90.011 Y112.676 E.03055
G1 X89.788 Y111.88 E.02986
G1 X89.641 Y111.053 E.03033
G1 X89.578 Y110.227 E.0299
G1 X89.595 Y109.417 E.02927
G1 X89.693 Y108.593 E.02996
G1 X89.847 Y107.877 E.02643
G1 X90.08 Y107.125 E.02844
G1 X90.425 Y106.312 E.0319
G1 X90.83 Y105.576 E.03029
G1 X91.31 Y104.878 E.0306
G1 X91.717 Y104.386 E.02307
G1 X92.22 Y103.875 E.02589
G1 X92.546 Y104.196 F30000
G1 F3000
G1 X92.603 Y104.138 E.00295
G1 X93.002 Y103.794 E.019
G1 X93.59 Y103.364 E.02631
G1 X94.14 Y103.029 E.02325
G1 X94.672 Y102.76 E.02153
G1 X95.342 Y102.488 E.02609
G1 X95.803 Y102.34 E.01749
M73 P1 R12
G1 X96.268 Y102.222 E.01732
G1 X96.867 Y102.112 E.02199
G1 X97.864 Y102.023 E.03614
G1 X103.908 Y101.267 E.21994
G1 X104.878 Y101.101 E.03553
G1 X105.458 Y101.048 E.021
G1 X106.22 Y101.034 E.02754
G1 X122.493 Y102.045 E.58868
G1 X122.942 Y102.087 E.01626
G1 X123.473 Y102.168 E.01941
G1 X123.942 Y102.271 E.01732
G1 X124.431 Y102.411 E.0184
G1 X124.869 Y102.566 E.01675
G1 X125.588 Y102.886 E.02842
G1 X126.114 Y103.176 E.02166
G1 X126.78 Y103.624 E.02902
G1 X127.15 Y103.919 E.01708
G1 X127.746 Y104.48 E.02953
G1 X128.174 Y104.962 E.02327
G1 X128.466 Y105.343 E.01735
G1 X128.715 Y105.709 E.01599
G1 X129.05 Y106.285 E.02405
G1 X129.258 Y106.71 E.01707
G1 X129.426 Y107.11 E.01568
G1 X129.681 Y107.882 E.02935
G1 X129.852 Y108.646 E.02826
G1 X129.947 Y109.434 E.02868
G1 X129.964 Y110.227 E.02862
G1 X129.903 Y111.014 E.0285
G1 X129.783 Y111.704 E.02531
G1 X129.595 Y112.406 E.02623
G1 X129.312 Y113.166 E.02928
G1 X128.943 Y113.909 E.02995
G1 X128.56 Y114.521 E.02609
G1 X128.121 Y115.1 E.02622
G1 X127.631 Y115.637 E.02626
G1 X127.119 Y116.107 E.02508
G1 X126.775 Y116.381 E.0159
G1 X126.391 Y116.65 E.01691
G1 X125.825 Y116.989 E.02385
G1 X125.144 Y117.321 E.02733
G1 X124.367 Y117.607 E.0299
G1 X123.644 Y117.797 E.02698
G1 X123.177 Y117.881 E.01714
G1 X122.477 Y117.956 E.02541
G1 X106.664 Y118.946 E.57208
G1 X105.762 Y118.965 E.03256
G1 X104.981 Y118.911 E.02828
G1 X103.908 Y118.733 E.03927
G1 X97.859 Y117.977 E.22009
G1 X96.957 Y117.9 E.03269
G1 X96.091 Y117.737 E.03181
G1 X95.488 Y117.562 E.02269
G1 X94.723 Y117.264 E.02962
G1 X94.29 Y117.053 E.01743
G1 X93.575 Y116.627 E.03002
G1 X93.085 Y116.271 E.02188
G1 X92.489 Y115.755 E.02846
G1 X92.162 Y115.425 E.01675
G1 X91.888 Y115.113 E.01499
G1 X91.399 Y114.462 E.02943
G1 X91.041 Y113.882 E.02459
G1 X90.736 Y113.272 E.02464
G1 X90.448 Y112.537 E.0285
G1 X90.236 Y111.785 E.02822
G1 X90.096 Y111.002 E.0287
G1 X90.036 Y110.221 E.02828
G1 X90.051 Y109.455 E.02766
G1 X90.143 Y108.674 E.02839
G1 X90.291 Y107.987 E.02537
G1 X90.508 Y107.289 E.02641
G1 X90.834 Y106.518 E.03023
G1 X91.216 Y105.823 E.02863
G1 X91.672 Y105.159 E.02908
G1 X92.061 Y104.688 E.02205
G1 X92.518 Y104.224 E.0235
G1 X92.843 Y104.545 F30000
G1 F3000
G1 X92.912 Y104.476 E.00352
G1 X93.282 Y104.156 E.01768
G1 X93.84 Y103.748 E.02494
G1 X94.357 Y103.432 E.0219
G1 X94.867 Y103.175 E.02059
G1 X95.493 Y102.92 E.02442
G1 X95.925 Y102.781 E.01638
G1 X96.361 Y102.67 E.01625
G1 X96.935 Y102.565 E.02107
G1 X97.923 Y102.476 E.03582
G1 X103.962 Y101.721 E.21974
G1 X104.943 Y101.554 E.03594
G1 X105.488 Y101.504 E.01975
G1 X106.216 Y101.492 E.02628
G1 X122.456 Y102.5 E.58749
G1 X122.882 Y102.54 E.01545
G1 X123.394 Y102.619 E.0187
G1 X123.834 Y102.715 E.01626
G1 X124.288 Y102.846 E.01706
G1 X124.704 Y102.993 E.01595
G1 X125.39 Y103.299 E.0271
G1 X125.88 Y103.57 E.02023
G1 X126.505 Y103.99 E.02719
G1 X126.846 Y104.262 E.01574
G1 X127.413 Y104.794 E.02808
G1 X127.824 Y105.257 E.02234
G1 X128.093 Y105.607 E.01596
G1 X128.325 Y105.949 E.0149
G1 X128.648 Y106.505 E.02324
G1 X128.996 Y107.265 E.03017
G1 X129.238 Y107.997 E.02783
G1 X129.399 Y108.717 E.02663
G1 X129.49 Y109.46 E.02703
G1 X129.507 Y110.207 E.02698
G1 X129.45 Y110.95 E.02691
G1 X129.335 Y111.612 E.02425
G1 X129.157 Y112.273 E.02471
G1 X128.889 Y112.99 E.02765
G1 X128.547 Y113.679 E.02778
G1 X128.18 Y114.267 E.025
G1 X127.766 Y114.812 E.02472
G1 X127.303 Y115.318 E.02477
G1 X126.826 Y115.756 E.02338
G1 X126.497 Y116.017 E.01514
G1 X126.138 Y116.269 E.01585
G1 X125.612 Y116.584 E.02214
G1 X124.971 Y116.897 E.02575
G1 X124.236 Y117.168 E.02828
G1 X123.541 Y117.351 E.02597
G1 X123.107 Y117.429 E.01589
G1 X122.436 Y117.501 E.02439
G1 X106.648 Y118.489 E.57116
G1 X105.779 Y118.507 E.03136
G1 X105.041 Y118.457 E.02673
G1 X103.962 Y118.279 E.03948
G1 X97.919 Y117.523 E.21989
G1 X97.026 Y117.447 E.03236
G1 X96.204 Y117.293 E.03018
G1 X95.629 Y117.126 E.02161
G1 X94.912 Y116.847 E.02779
G1 X94.502 Y116.647 E.01647
G1 X93.822 Y116.241 E.02859
G1 X93.364 Y115.909 E.02042
G1 X92.797 Y115.418 E.02709
G1 X92.247 Y114.829 E.0291
G1 X91.781 Y114.209 E.02801
G1 X91.438 Y113.654 E.02355
G1 X91.151 Y113.08 E.02316
G1 X90.88 Y112.385 E.02695
G1 X90.68 Y111.676 E.02659
G1 X90.551 Y110.951 E.02658
G1 X90.494 Y110.215 E.02667
G1 X90.507 Y109.493 E.02605
G1 X90.594 Y108.756 E.02682
G1 X90.732 Y108.109 E.02386
G1 X90.936 Y107.453 E.02482
G1 X91.244 Y106.724 E.02856
G1 X91.602 Y106.069 E.02698
G1 X92.034 Y105.439 E.02754
G1 X92.405 Y104.99 E.02103
G1 X92.815 Y104.574 E.02112
G1 X93.126 Y104.916 F30000
G1 F3000
G1 X93.565 Y104.517 E.0214
G1 X94.126 Y104.107 E.02508
G1 X94.666 Y103.784 E.02273
G1 X95.224 Y103.516 E.02236
G1 X95.802 Y103.299 E.0223
G1 X96.61 Y103.086 E.03017
G1 X97.233 Y102.988 E.02274
G1 X97.836 Y102.948 E.02183
G1 X104.178 Y102.155 E.23076
G1 X104.834 Y102.031 E.02411
G1 X105.554 Y101.96 E.02615
G1 X106.521 Y101.96 E.03489
G1 X122.478 Y102.96 E.57728
G1 X123.604 Y103.135 E.04116
G1 X124.445 Y103.386 E.03167
G1 X125.104 Y103.666 E.02586
G1 X125.745 Y104.023 E.02647
G1 X126.317 Y104.422 E.0252
G1 X126.827 Y104.857 E.02418
G1 X127.314 Y105.362 E.02536
G1 X127.75 Y105.915 E.02539
G1 X128.128 Y106.507 E.02539
G1 X128.445 Y107.135 E.02539
G1 X128.698 Y107.791 E.02539
G1 X128.885 Y108.469 E.02539
G1 X129.003 Y109.162 E.02538
G1 X129.052 Y109.863 E.02537
G1 X129.031 Y110.562 E.02524
G1 X128.945 Y111.233 E.02443
G1 X128.786 Y111.923 E.02556
G1 X128.574 Y112.553 E.02402
G1 X128.277 Y113.213 E.02613
G1 X127.846 Y113.942 E.03057
G1 X127.313 Y114.636 E.03159
G1 X126.536 Y115.398 E.0393
G1 X125.856 Y115.903 E.03058
G1 X125.112 Y116.327 E.03094
G1 X124.363 Y116.643 E.02935
G1 X123.538 Y116.882 E.03101
G1 X122.478 Y117.04 E.03869
G1 X106.322 Y118.049 E.58446
G1 X105.633 Y118.046 E.02489
G1 X105.069 Y118 E.02043
G1 X104.197 Y117.848 E.03195
G1 X97.818 Y117.05 E.23214
G1 X97.158 Y117.002 E.02387
G1 X96.414 Y116.872 E.02727
G1 X95.66 Y116.655 E.02833
G1 X95.175 Y116.464 E.0188
G1 X94.668 Y116.218 E.02036
G1 X94.176 Y115.928 E.02061
G1 X93.709 Y115.598 E.02066
G1 X93.168 Y115.137 E.02566
G1 X92.605 Y114.54 E.02963
G1 X92.176 Y113.978 E.02552
G1 X91.82 Y113.4 E.02451
G1 X91.507 Y112.754 E.02591
G1 X91.263 Y112.086 E.02567
G1 X91.088 Y111.402 E.02551
G1 X90.982 Y110.706 E.02541
G1 X90.947 Y110.004 E.0254
G1 X90.975 Y109.362 E.02317
G1 X91.072 Y108.677 E.025
G1 X91.244 Y107.974 E.02614
G1 X91.462 Y107.355 E.02367
G1 X91.735 Y106.761 E.0236
G1 X92.09 Y106.15 E.02552
G1 X92.505 Y105.578 E.02554
G1 X92.947 Y105.079 E.02403
G1 X93.097 Y104.943 E.00732
G1 X93.402 Y105.278 F30000
G1 F3000
G1 X93.829 Y104.89 E.02083
G1 X94.4 Y104.472 E.02557
G1 X94.904 Y104.174 E.02113
G1 X95.379 Y103.946 E.01904
G1 X95.969 Y103.724 E.02278
G1 X96.731 Y103.527 E.0284
G1 X97.307 Y103.439 E.02105
G1 X97.874 Y103.404 E.02051
G1 X104.254 Y102.606 E.23214
G1 X104.875 Y102.486 E.02286
G1 X105.548 Y102.417 E.02442
G1 X106.488 Y102.416 E.03393
G1 X122.456 Y103.416 E.57766
G1 X123.465 Y103.571 E.03686
G1 X124.322 Y103.826 E.03229
G1 X124.878 Y104.063 E.02182
G1 X125.479 Y104.395 E.02481
G1 X126.017 Y104.767 E.02361
G1 X126.495 Y105.171 E.02258
G1 X126.952 Y105.642 E.02371
G1 X127.362 Y106.157 E.02375
G1 X127.718 Y106.71 E.02374
